(G-CODE GENERATED BY FLATCAM v8.96 - www.flatcam.org - Version Date: 2019/08/23)

(Name: back)
(Type: G-code from Geometry)
(Units: MM)

(Created on Sunday, 03 November 2019 at 01:10)

(TOOL DIAMETER: 0.18 mm)

(Feedrate: 79.9998 mm/min)
(Feedrate_Z: 79.9998 mm/min)
(Feedrate rapids 79.9998 mm/min)

(Z_Cut: -0.1493 mm)
(Z_Move: 1.999 mm)
(Z Toolchange: 12.7 mm)
(X,Y Toolchange: 0.0000, 0.0000 mm)
(Z Start: None mm)
(Z End: 12.7 mm)
(Steps per circle: 128)
(Postprocessor Geometry: grbl_11)

(X range:    3.4896 ...   60.2900  mm)
(Y range:    7.7200 ...   47.9850  mm)

(Spindle Speed: 30 RPM)


G21
G90
G94
G17

G01 F80.00
G00 Z1.9990

M03 S30
G00 X3.4897 Y10.9188
G01 F80.00
G01 Z-0.1493
G01 F80.00
G01 X3.4906 Y10.8820 F80.00
G01 X3.4934 Y10.8455 F80.00
G01 X3.4980 Y10.8087 F80.00
G01 X3.5041 Y10.7736 F80.00
G01 X3.5119 Y10.7389 F80.00
G01 X3.5216 Y10.7034 F80.00
G01 X3.5331 Y10.6684 F80.00
G01 X3.5463 Y10.6340 F80.00
G01 X3.5612 Y10.6003 F80.00
G01 X3.5777 Y10.5674 F80.00
G01 X3.5969 Y10.5334 F80.00
G01 X3.6154 Y10.5042 F80.00
G01 X3.6375 Y10.4728 F80.00
G01 X3.6592 Y10.4449 F80.00
G01 X3.6849 Y10.4152 F80.00
G01 X3.7094 Y10.3894 F80.00
G01 X5.7894 Y8.3094 F80.00
G01 X5.8152 Y8.2849 F80.00
G01 X5.8430 Y8.2608 F80.00
G01 X5.8728 Y8.2375 F80.00
G01 X5.9042 Y8.2154 F80.00
G01 X5.9353 Y8.1958 F80.00
G01 X5.9674 Y8.1777 F80.00
G01 X5.9982 Y8.1622 F80.00
G01 X6.0317 Y8.1473 F80.00
G01 X6.0661 Y8.1339 F80.00
G01 X6.1010 Y8.1223 F80.00
G01 X6.1389 Y8.1119 F80.00
G01 X6.1736 Y8.1041 F80.00
G01 X6.2087 Y8.0980 F80.00
G01 X6.2477 Y8.0932 F80.00
G01 X6.2820 Y8.0906 F80.00
G01 X6.3188 Y8.0897 F80.00
G01 X7.4786 Y8.0896 F80.00
G01 X7.5189 Y8.0472 F80.00
G01 X7.5588 Y8.0093 F80.00
G01 X7.6004 Y7.9735 F80.00
G01 X7.6426 Y7.9406 F80.00
G01 X7.6888 Y7.9081 F80.00
G01 X7.7353 Y7.8787 F80.00
G01 X7.7831 Y7.8517 F80.00
G01 X7.8302 Y7.8280 F80.00
G01 X7.8820 Y7.8050 F80.00
G01 X7.9338 Y7.7851 F80.00
G01 X7.9861 Y7.7679 F80.00
G01 X8.0391 Y7.7533 F80.00
G01 X8.0914 Y7.7415 F80.00
G01 X8.1469 Y7.7320 F80.00
G01 X8.2014 Y7.7253 F80.00
G01 X8.2563 Y7.7213 F80.00
G01 X8.3100 Y7.7200 F80.00
G01 X10.1700 Y7.7200 F80.00
G01 X10.2262 Y7.7214 F80.00
G01 X10.2807 Y7.7255 F80.00
G01 X10.3331 Y7.7320 F80.00
G01 X10.3886 Y7.7415 F80.00
G01 X10.4433 Y7.7539 F80.00
G01 X10.4939 Y7.7679 F80.00
G01 X10.5462 Y7.7851 F80.00
G01 X10.5997 Y7.8057 F80.00
G01 X10.6498 Y7.8280 F80.00
G01 X10.6969 Y7.8517 F80.00
G01 X10.7466 Y7.8799 F80.00
G01 X10.7933 Y7.9094 F80.00
G01 X10.8374 Y7.9406 F80.00
G01 X10.8796 Y7.9735 F80.00
G01 X10.9230 Y8.0110 F80.00
G01 X10.9620 Y8.0480 F80.00
G01 X10.9990 Y8.0870 F80.00
G01 X11.0365 Y8.1304 F80.00
G01 X11.0694 Y8.1726 F80.00
G01 X11.1006 Y8.2167 F80.00
G01 X11.1313 Y8.2653 F80.00
G01 X11.1583 Y8.3131 F80.00
G01 X11.1820 Y8.3602 F80.00
G01 X11.2043 Y8.4103 F80.00
G01 X11.2241 Y8.4615 F80.00
G01 X11.2414 Y8.5137 F80.00
G01 X11.2561 Y8.5667 F80.00
G01 X11.2685 Y8.6214 F80.00
G01 X11.2777 Y8.6745 F80.00
G01 X11.2845 Y8.7290 F80.00
G01 X11.2886 Y8.7838 F80.00
G01 X11.2900 Y8.8400 F80.00
G01 X11.2886 Y8.8962 F80.00
G01 X11.2845 Y8.9507 F80.00
G01 X11.2777 Y9.0055 F80.00
G01 X11.2685 Y9.0586 F80.00
G01 X11.2567 Y9.1109 F80.00
G01 X11.2421 Y9.1639 F80.00
G01 X11.2249 Y9.2162 F80.00
G01 X11.2052 Y9.2675 F80.00
G01 X11.1820 Y9.3198 F80.00
G01 X11.1583 Y9.3669 F80.00
G01 X11.1301 Y9.4166 F80.00
G01 X11.1019 Y9.4612 F80.00
G01 X11.0694 Y9.5074 F80.00
G01 X11.0352 Y9.5512 F80.00
G01 X11.0007 Y9.5912 F80.00
G01 X10.9628 Y9.6311 F80.00
G01 X10.9230 Y9.6690 F80.00
G01 X10.8815 Y9.7050 F80.00
G01 X10.8374 Y9.7394 F80.00
G01 X10.7933 Y9.7706 F80.00
G01 X10.7468 Y9.8000 F80.00
G01 X10.6990 Y9.8272 F80.00
G01 X10.6477 Y9.8530 F80.00
G01 X10.5980 Y9.8750 F80.00
G01 X10.5462 Y9.8949 F80.00
G01 X10.4939 Y9.9121 F80.00
G01 X10.4409 Y9.9267 F80.00
G01 X10.3886 Y9.9385 F80.00
G01 X10.3331 Y9.9480 F80.00
G01 X10.2786 Y9.9547 F80.00
G01 X10.2237 Y9.9587 F80.00
G01 X10.1700 Y9.9600 F80.00
G01 X8.3100 Y9.9600 F80.00
G01 X8.2538 Y9.9586 F80.00
G01 X8.1993 Y9.9545 F80.00
G01 X8.1445 Y9.9477 F80.00
G01 X8.0914 Y9.9385 F80.00
G01 X8.0367 Y9.9261 F80.00
G01 X7.9837 Y9.9114 F80.00
G01 X7.9315 Y9.8941 F80.00
G01 X7.8820 Y9.8750 F80.00
G01 X7.8302 Y9.8520 F80.00
G01 X7.7810 Y9.8272 F80.00
G01 X7.7334 Y9.8001 F80.00
G01 X7.6867 Y9.7706 F80.00
G01 X7.6426 Y9.7394 F80.00
G01 X7.5988 Y9.7052 F80.00
G01 X7.5570 Y9.6690 F80.00
G01 X7.5180 Y9.6320 F80.00
G01 X7.4786 Y9.5904 F80.00
G01 X6.6308 Y9.5904 F80.00
G01 X4.9904 Y11.2308 F80.00
G01 X4.9904 Y16.6092 F80.00
G01 X6.5508 Y18.1696 F80.00
G01 X12.9292 Y18.1696 F80.00
G01 X15.2494 Y15.8494 F80.00
G01 X15.2770 Y15.8232 F80.00
G01 X15.3049 Y15.7992 F80.00
G01 X15.3328 Y15.7775 F80.00
G01 X15.3621 Y15.7568 F80.00
G01 X15.3932 Y15.7370 F80.00
G01 X15.4274 Y15.7177 F80.00
G01 X15.4603 Y15.7012 F80.00
G01 X15.4940 Y15.6863 F80.00
G01 X15.5261 Y15.6739 F80.00
G01 X15.5610 Y15.6623 F80.00
G01 X15.5965 Y15.6524 F80.00
G01 X15.6336 Y15.6441 F80.00
G01 X15.6687 Y15.6380 F80.00
G01 X15.7077 Y15.6332 F80.00
G01 X15.7444 Y15.6305 F80.00
G01 X15.7800 Y15.6296 F80.00
G01 X17.8170 Y15.6296 F80.00
G01 X17.8604 Y15.5836 F80.00
G01 X17.9004 Y15.5456 F80.00
G01 X17.9423 Y15.5096 F80.00
G01 X17.9846 Y15.4766 F80.00
G01 X18.0310 Y15.4439 F80.00
G01 X18.0777 Y15.4144 F80.00
G01 X18.1258 Y15.3873 F80.00
G01 X18.1730 Y15.3635 F80.00
G01 X18.2250 Y15.3404 F80.00
G01 X18.2772 Y15.3204 F80.00
G01 X18.3296 Y15.3031 F80.00
G01 X18.3828 Y15.2884 F80.00
G01 X18.4355 Y15.2766 F80.00
G01 X18.4911 Y15.2670 F80.00
G01 X18.5460 Y15.2603 F80.00
G01 X18.6010 Y15.2563 F80.00
G01 X18.6550 Y15.2550 F80.00
G01 X20.5050 Y15.2550 F80.00
G01 X20.5590 Y15.2563 F80.00
G01 X20.6162 Y15.2605 F80.00
G01 X20.6689 Y15.2670 F80.00
G01 X20.7245 Y15.2766 F80.00
G01 X20.7772 Y15.2884 F80.00
G01 X20.8304 Y15.3031 F80.00
G01 X20.8828 Y15.3204 F80.00
G01 X20.9350 Y15.3404 F80.00
G01 X20.9870 Y15.3635 F80.00
G01 X21.0364 Y15.3884 F80.00
G01 X21.0842 Y15.4156 F80.00
G01 X21.1290 Y15.4439 F80.00
G01 X21.1742 Y15.4757 F80.00
G01 X21.2194 Y15.5110 F80.00
G01 X21.2596 Y15.5456 F80.00
G01 X21.3014 Y15.5854 F80.00
G01 X21.3377 Y15.6236 F80.00
G01 X21.3738 Y15.6654 F80.00
G01 X21.4084 Y15.7096 F80.00
G01 X21.4397 Y15.7540 F80.00
G01 X21.4693 Y15.8006 F80.00
G01 X21.4966 Y15.8486 F80.00
G01 X21.5215 Y15.8980 F80.00
G01 X21.5439 Y15.9484 F80.00
G01 X21.5646 Y16.0022 F80.00
G01 X21.5819 Y16.0546 F80.00
G01 X21.5966 Y16.1078 F80.00
G01 X21.6084 Y16.1605 F80.00
G01 X21.6176 Y16.2137 F80.00
G01 X21.6244 Y16.2685 F80.00
G01 X21.6286 Y16.3236 F80.00
G01 X21.6300 Y16.3812 F80.00
G01 X21.6286 Y16.4364 F80.00
G01 X21.6244 Y16.4915 F80.00
G01 X21.6176 Y16.5463 F80.00
G01 X21.6084 Y16.5995 F80.00
G01 X21.5960 Y16.6545 F80.00
G01 X21.5812 Y16.7077 F80.00
G01 X21.5646 Y16.7578 F80.00
G01 X21.5448 Y16.8094 F80.00
G01 X21.5215 Y16.8620 F80.00
G01 X21.4977 Y16.9092 F80.00
G01 X21.4706 Y16.9573 F80.00
G01 X21.4397 Y17.0060 F80.00
G01 X21.4084 Y17.0504 F80.00
G01 X21.3754 Y17.0927 F80.00
G01 X21.3377 Y17.1364 F80.00
G01 X21.3005 Y17.1755 F80.00
G01 X21.2614 Y17.2127 F80.00
G01 X21.2177 Y17.2504 F80.00
G01 X21.1754 Y17.2834 F80.00
G01 X21.1310 Y17.3147 F80.00
G01 X21.0823 Y17.3456 F80.00
G01 X21.0364 Y17.3716 F80.00
G01 X20.9871 Y17.3964 F80.00
G01 X20.9350 Y17.4196 F80.00
G01 X20.8852 Y17.4388 F80.00
G01 X20.8327 Y17.4562 F80.00
G01 X20.7772 Y17.4716 F80.00
G01 X20.7245 Y17.4834 F80.00
G01 X20.6713 Y17.4926 F80.00
G01 X20.6140 Y17.4997 F80.00
G01 X20.5590 Y17.5037 F80.00
G01 X20.5050 Y17.5050 F80.00
G01 X18.6550 Y17.5050 F80.00
G01 X18.6010 Y17.5037 F80.00
G01 X18.5460 Y17.4997 F80.00
G01 X18.4911 Y17.4930 F80.00
G01 X18.4355 Y17.4834 F80.00
G01 X18.3828 Y17.4716 F80.00
G01 X18.3296 Y17.4569 F80.00
G01 X18.2772 Y17.4396 F80.00
G01 X18.2250 Y17.4196 F80.00
G01 X18.1730 Y17.3965 F80.00
G01 X18.1258 Y17.3727 F80.00
G01 X18.0758 Y17.3444 F80.00
G01 X18.0310 Y17.3161 F80.00
G01 X17.9846 Y17.2834 F80.00
G01 X17.9423 Y17.2504 F80.00
G01 X17.9004 Y17.2144 F80.00
G01 X17.8604 Y17.1764 F80.00
G01 X17.8170 Y17.1303 F80.00
G01 X16.0908 Y17.1303 F80.00
G01 X13.7706 Y19.4506 F80.00
G01 X13.7448 Y19.4751 F80.00
G01 X13.7151 Y19.5008 F80.00
G01 X13.6872 Y19.5225 F80.00
G01 X13.6579 Y19.5432 F80.00
G01 X13.6247 Y19.5642 F80.00
G01 X13.5926 Y19.5823 F80.00
G01 X13.5618 Y19.5978 F80.00
G01 X13.5283 Y19.6127 F80.00
G01 X13.4916 Y19.6269 F80.00
G01 X13.4590 Y19.6377 F80.00
G01 X13.4235 Y19.6476 F80.00
G01 X13.3864 Y19.6559 F80.00
G01 X13.3513 Y19.6620 F80.00
G01 X13.3148 Y19.6666 F80.00
G01 X13.2780 Y19.6694 F80.00
G01 X13.2400 Y19.6704 F80.00
G01 X6.2400 Y19.6704 F80.00
G01 X6.2044 Y19.6695 F80.00
G01 X6.1677 Y19.6668 F80.00
G01 X6.1287 Y19.6620 F80.00
G01 X6.0936 Y19.6559 F80.00
G01 X6.0589 Y19.6481 F80.00
G01 X6.0210 Y19.6377 F80.00
G01 X5.9861 Y19.6261 F80.00
G01 X5.9517 Y19.6127 F80.00
G01 X5.9182 Y19.5978 F80.00
G01 X5.8874 Y19.5823 F80.00
G01 X5.8553 Y19.5642 F80.00
G01 X5.8242 Y19.5446 F80.00
G01 X5.7928 Y19.5225 F80.00
G01 X5.7633 Y19.4994 F80.00
G01 X5.7352 Y19.4751 F80.00
G01 X5.7094 Y19.4506 F80.00
G01 X3.7094 Y17.4506 F80.00
G01 X3.6832 Y17.4230 F80.00
G01 X3.6608 Y17.3970 F80.00
G01 X3.6381 Y17.3680 F80.00
G01 X3.6168 Y17.3379 F80.00
G01 X3.5958 Y17.3047 F80.00
G01 X3.5777 Y17.2726 F80.00
G01 X3.5622 Y17.2418 F80.00
G01 X3.5473 Y17.2083 F80.00
G01 X3.5339 Y17.1739 F80.00
G01 X3.5216 Y17.1366 F80.00
G01 X3.5124 Y17.1035 F80.00
G01 X3.5043 Y17.0676 F80.00
G01 X3.4976 Y17.0289 F80.00
G01 X3.4934 Y16.9948 F80.00
G01 X3.4906 Y16.9580 F80.00
G01 X3.4896 Y16.9200 F80.00
G01 X3.4897 Y10.9188 F80.00
G00 Z1.9990
G00 X7.1913 Y11.4337
G01 F80.00
G01 Z-0.1493
G01 F80.00
G01 X7.1900 Y11.3800 F80.00
G01 X7.1914 Y11.3238 F80.00
G01 X7.1955 Y11.2693 F80.00
G01 X7.2023 Y11.2145 F80.00
G01 X7.2115 Y11.1614 F80.00
G01 X7.2239 Y11.1067 F80.00
G01 X7.2386 Y11.0537 F80.00
G01 X7.2559 Y11.0015 F80.00
G01 X7.2757 Y10.9503 F80.00
G01 X7.2980 Y10.9002 F80.00
G01 X7.3217 Y10.8531 F80.00
G01 X7.3499 Y10.8034 F80.00
G01 X7.3781 Y10.7588 F80.00
G01 X7.4106 Y10.7126 F80.00
G01 X7.4448 Y10.6688 F80.00
G01 X7.4793 Y10.6288 F80.00
G01 X7.5172 Y10.5889 F80.00
G01 X7.5570 Y10.5510 F80.00
G01 X7.5985 Y10.5150 F80.00
G01 X7.6426 Y10.4806 F80.00
G01 X7.6867 Y10.4494 F80.00
G01 X7.7332 Y10.4200 F80.00
G01 X7.7810 Y10.3928 F80.00
G01 X7.8302 Y10.3680 F80.00
G01 X7.8820 Y10.3450 F80.00
G01 X7.9338 Y10.3251 F80.00
G01 X7.9861 Y10.3079 F80.00
G01 X8.0391 Y10.2933 F80.00
G01 X8.0914 Y10.2815 F80.00
G01 X8.1445 Y10.2723 F80.00
G01 X8.1990 Y10.2655 F80.00
G01 X8.2538 Y10.2614 F80.00
G01 X8.3100 Y10.2600 F80.00
G01 X10.1700 Y10.2600 F80.00
G01 X10.2262 Y10.2614 F80.00
G01 X10.2807 Y10.2655 F80.00
G01 X10.3331 Y10.2720 F80.00
G01 X10.3886 Y10.2815 F80.00
G01 X10.4409 Y10.2933 F80.00
G01 X10.4963 Y10.3086 F80.00
G01 X10.5485 Y10.3259 F80.00
G01 X10.5980 Y10.3450 F80.00
G01 X10.6498 Y10.3680 F80.00
G01 X10.6990 Y10.3928 F80.00
G01 X10.7466 Y10.4199 F80.00
G01 X10.7933 Y10.4494 F80.00
G01 X10.8374 Y10.4806 F80.00
G01 X10.8796 Y10.5135 F80.00
G01 X10.9212 Y10.5493 F80.00
G01 X10.9611 Y10.5872 F80.00
G01 X11.0014 Y10.6296 F80.00
G01 X17.7515 Y10.6296 F80.00
G01 X17.7860 Y10.5856 F80.00
G01 X17.8206 Y10.5454 F80.00
G01 X17.8595 Y10.5045 F80.00
G01 X17.8986 Y10.4673 F80.00
G01 X17.9404 Y10.4312 F80.00
G01 X17.9846 Y10.3966 F80.00
G01 X18.0290 Y10.3653 F80.00
G01 X18.0756 Y10.3357 F80.00
G01 X18.1236 Y10.3084 F80.00
G01 X18.1730 Y10.2835 F80.00
G01 X18.2250 Y10.2604 F80.00
G01 X18.2748 Y10.2412 F80.00
G01 X18.3273 Y10.2238 F80.00
G01 X18.3805 Y10.2090 F80.00
G01 X18.4355 Y10.1966 F80.00
G01 X18.4887 Y10.1874 F80.00
G01 X18.5460 Y10.1803 F80.00
G01 X18.6010 Y10.1763 F80.00
G01 X18.6550 Y10.1750 F80.00
G01 X20.5050 Y10.1750 F80.00
G01 X20.5590 Y10.1763 F80.00
G01 X20.6140 Y10.1803 F80.00
G01 X20.6713 Y10.1874 F80.00
G01 X20.7245 Y10.1966 F80.00
G01 X20.7795 Y10.2090 F80.00
G01 X20.8327 Y10.2238 F80.00
G01 X20.8852 Y10.2412 F80.00
G01 X20.9350 Y10.2604 F80.00
G01 X20.9871 Y10.2835 F80.00
G01 X21.0364 Y10.3084 F80.00
G01 X21.0842 Y10.3356 F80.00
G01 X21.1310 Y10.3653 F80.00
G01 X21.1754 Y10.3966 F80.00
G01 X21.2194 Y10.4310 F80.00
G01 X21.2596 Y10.4656 F80.00
G01 X21.3005 Y10.5045 F80.00
G01 X21.3377 Y10.5436 F80.00
G01 X21.3738 Y10.5854 F80.00
G01 X21.4084 Y10.6296 F80.00
G01 X21.4397 Y10.6740 F80.00
G01 X21.4693 Y10.7206 F80.00
G01 X21.4977 Y10.7708 F80.00
G01 X21.5215 Y10.8180 F80.00
G01 X21.5448 Y10.8706 F80.00
G01 X21.5646 Y10.9222 F80.00
G01 X21.5819 Y10.9746 F80.00
G01 X21.5966 Y11.0278 F80.00
G01 X21.6084 Y11.0805 F80.00
G01 X21.6176 Y11.1337 F80.00
G01 X21.6244 Y11.1885 F80.00
G01 X21.6286 Y11.2436 F80.00
G01 X21.6300 Y11.3000 F80.00
G01 X21.6286 Y11.3564 F80.00
G01 X21.6245 Y11.4112 F80.00
G01 X21.6176 Y11.4663 F80.00
G01 X21.6084 Y11.5195 F80.00
G01 X21.5966 Y11.5722 F80.00
G01 X21.5819 Y11.6254 F80.00
G01 X21.5646 Y11.6778 F80.00
G01 X21.5446 Y11.7300 F80.00
G01 X21.5215 Y11.7820 F80.00
G01 X21.4977 Y11.8292 F80.00
G01 X21.4694 Y11.8792 F80.00
G01 X21.4411 Y11.9240 F80.00
G01 X21.4084 Y11.9704 F80.00
G01 X21.3740 Y12.0144 F80.00
G01 X21.3377 Y12.0564 F80.00
G01 X21.3005 Y12.0955 F80.00
G01 X21.2596 Y12.1344 F80.00
G01 X21.2177 Y12.1704 F80.00
G01 X21.1754 Y12.2034 F80.00
G01 X21.1290 Y12.2361 F80.00
G01 X21.0823 Y12.2656 F80.00
G01 X21.0342 Y12.2927 F80.00
G01 X20.9870 Y12.3165 F80.00
G01 X20.9350 Y12.3396 F80.00
G01 X20.8828 Y12.3596 F80.00
G01 X20.8304 Y12.3769 F80.00
G01 X20.7772 Y12.3916 F80.00
G01 X20.7245 Y12.4034 F80.00
G01 X20.6713 Y12.4126 F80.00
G01 X20.6165 Y12.4194 F80.00
G01 X20.5614 Y12.4236 F80.00
G01 X20.5050 Y12.4250 F80.00
G01 X18.6550 Y12.4250 F80.00
G01 X18.5986 Y12.4236 F80.00
G01 X18.5438 Y12.4195 F80.00
G01 X18.4911 Y12.4130 F80.00
G01 X18.4367 Y12.4036 F80.00
G01 X18.3805 Y12.3910 F80.00
G01 X18.3296 Y12.3769 F80.00
G01 X18.2772 Y12.3596 F80.00
G01 X18.2250 Y12.3396 F80.00
G01 X18.1751 Y12.3175 F80.00
G01 X18.1258 Y12.2927 F80.00
G01 X18.0777 Y12.2656 F80.00
G01 X18.0290 Y12.2347 F80.00
G01 X17.9846 Y12.2034 F80.00
G01 X17.9423 Y12.1704 F80.00
G01 X17.8961 Y12.1304 F80.00
G01 X11.0014 Y12.1304 F80.00
G01 X10.9611 Y12.1728 F80.00
G01 X10.9212 Y12.2107 F80.00
G01 X10.8796 Y12.2465 F80.00
G01 X10.8374 Y12.2794 F80.00
G01 X10.7933 Y12.3106 F80.00
G01 X10.7468 Y12.3400 F80.00
G01 X10.6990 Y12.3672 F80.00
G01 X10.6498 Y12.3920 F80.00
G01 X10.5980 Y12.4150 F80.00
G01 X10.5485 Y12.4341 F80.00
G01 X10.4963 Y12.4514 F80.00
G01 X10.4409 Y12.4667 F80.00
G01 X10.3886 Y12.4785 F80.00
G01 X10.3331 Y12.4880 F80.00
G01 X10.2810 Y12.4945 F80.00
G01 X10.2262 Y12.4986 F80.00
G01 X10.1700 Y12.5000 F80.00
G01 X8.3100 Y12.5000 F80.00
G01 X8.2563 Y12.4987 F80.00
G01 X8.2014 Y12.4947 F80.00
G01 X8.1445 Y12.4877 F80.00
G01 X8.0914 Y12.4785 F80.00
G01 X8.0367 Y12.4661 F80.00
G01 X7.9837 Y12.4514 F80.00
G01 X7.9315 Y12.4341 F80.00
G01 X7.8820 Y12.4150 F80.00
G01 X7.8300 Y12.3919 F80.00
G01 X7.7810 Y12.3672 F80.00
G01 X7.7334 Y12.3401 F80.00
G01 X7.6867 Y12.3106 F80.00
G01 X7.6426 Y12.2794 F80.00
G01 X7.5988 Y12.2452 F80.00
G01 X7.5588 Y12.2107 F80.00
G01 X7.5180 Y12.1720 F80.00
G01 X7.4810 Y12.1330 F80.00
G01 X7.4450 Y12.0915 F80.00
G01 X7.4112 Y12.0482 F80.00
G01 X7.3781 Y12.0012 F80.00
G01 X7.3487 Y11.9547 F80.00
G01 X7.3217 Y11.9069 F80.00
G01 X7.2980 Y11.8598 F80.00
G01 X7.2750 Y11.8080 F80.00
G01 X7.2559 Y11.7585 F80.00
G01 X7.2386 Y11.7063 F80.00
G01 X7.2239 Y11.6533 F80.00
G01 X7.2118 Y11.5997 F80.00
G01 X7.2023 Y11.5455 F80.00
G01 X7.1955 Y11.4910 F80.00
G01 X7.1913 Y11.4337 F80.00
G00 Z1.9990
G00 X7.1913 Y13.9737
G01 F80.00
G01 Z-0.1493
G01 F80.00
G01 X7.1900 Y13.9200 F80.00
G01 X7.1914 Y13.8638 F80.00
G01 X7.1955 Y13.8093 F80.00
G01 X7.2023 Y13.7545 F80.00
G01 X7.2115 Y13.7014 F80.00
G01 X7.2239 Y13.6467 F80.00
G01 X7.2386 Y13.5937 F80.00
G01 X7.2559 Y13.5415 F80.00
G01 X7.2757 Y13.4903 F80.00
G01 X7.2980 Y13.4402 F80.00
G01 X7.3217 Y13.3931 F80.00
G01 X7.3499 Y13.3434 F80.00
G01 X7.3781 Y13.2988 F80.00
G01 X7.4106 Y13.2526 F80.00
G01 X7.4448 Y13.2088 F80.00
G01 X7.4793 Y13.1688 F80.00
G01 X7.5172 Y13.1289 F80.00
G01 X7.5570 Y13.0910 F80.00
G01 X7.5985 Y13.0550 F80.00
G01 X7.6426 Y13.0206 F80.00
G01 X7.6867 Y12.9894 F80.00
G01 X7.7332 Y12.9600 F80.00
G01 X7.7810 Y12.9328 F80.00
G01 X7.8302 Y12.9080 F80.00
G01 X7.8820 Y12.8850 F80.00
G01 X7.9338 Y12.8651 F80.00
G01 X7.9861 Y12.8479 F80.00
G01 X8.0391 Y12.8333 F80.00
G01 X8.0914 Y12.8215 F80.00
G01 X8.1445 Y12.8123 F80.00
G01 X8.1990 Y12.8055 F80.00
G01 X8.2538 Y12.8014 F80.00
G01 X8.3100 Y12.8000 F80.00
G01 X10.1700 Y12.8000 F80.00
G01 X10.2262 Y12.8014 F80.00
G01 X10.2807 Y12.8055 F80.00
G01 X10.3331 Y12.8120 F80.00
G01 X10.3873 Y12.8213 F80.00
G01 X10.4433 Y12.8339 F80.00
G01 X10.4939 Y12.8479 F80.00
G01 X10.5462 Y12.8651 F80.00
G01 X10.5980 Y12.8850 F80.00
G01 X10.6477 Y12.9070 F80.00
G01 X10.6990 Y12.9328 F80.00
G01 X10.7466 Y12.9599 F80.00
G01 X10.7912 Y12.9881 F80.00
G01 X10.8382 Y13.0212 F80.00
G01 X10.8812 Y13.0548 F80.00
G01 X10.9216 Y13.0896 F80.00
G01 X17.8170 Y13.0896 F80.00
G01 X17.8604 Y13.0436 F80.00
G01 X17.9004 Y13.0056 F80.00
G01 X17.9423 Y12.9696 F80.00
G01 X17.9846 Y12.9366 F80.00
G01 X18.0290 Y12.9053 F80.00
G01 X18.0756 Y12.8757 F80.00
G01 X18.1236 Y12.8484 F80.00
G01 X18.1751 Y12.8225 F80.00
G01 X18.2250 Y12.8004 F80.00
G01 X18.2772 Y12.7804 F80.00
G01 X18.3296 Y12.7631 F80.00
G01 X18.3828 Y12.7484 F80.00
G01 X18.4355 Y12.7366 F80.00
G01 X18.4911 Y12.7270 F80.00
G01 X18.5435 Y12.7206 F80.00
G01 X18.5986 Y12.7164 F80.00
G01 X18.6550 Y12.7150 F80.00
G01 X20.5050 Y12.7150 F80.00
G01 X20.5590 Y12.7163 F80.00
G01 X20.6140 Y12.7203 F80.00
G01 X20.6713 Y12.7274 F80.00
G01 X20.7245 Y12.7366 F80.00
G01 X20.7795 Y12.7490 F80.00
G01 X20.8327 Y12.7638 F80.00
G01 X20.8852 Y12.7812 F80.00
G01 X20.9350 Y12.8004 F80.00
G01 X20.9871 Y12.8235 F80.00
G01 X21.0364 Y12.8484 F80.00
G01 X21.0842 Y12.8756 F80.00
G01 X21.1310 Y12.9053 F80.00
G01 X21.1754 Y12.9366 F80.00
G01 X21.2194 Y12.9710 F80.00
G01 X21.2596 Y13.0056 F80.00
G01 X21.3005 Y13.0445 F80.00
G01 X21.3377 Y13.0836 F80.00
G01 X21.3738 Y13.1254 F80.00
G01 X21.4084 Y13.1696 F80.00
G01 X21.4397 Y13.2140 F80.00
G01 X21.4693 Y13.2606 F80.00
G01 X21.4977 Y13.3108 F80.00
G01 X21.5215 Y13.3580 F80.00
G01 X21.5448 Y13.4106 F80.00
G01 X21.5646 Y13.4622 F80.00
G01 X21.5819 Y13.5146 F80.00
G01 X21.5966 Y13.5678 F80.00
G01 X21.6084 Y13.6205 F80.00
G01 X21.6176 Y13.6737 F80.00
G01 X21.6244 Y13.7285 F80.00
G01 X21.6286 Y13.7836 F80.00
G01 X21.6300 Y13.8400 F80.00
G01 X21.6286 Y13.8964 F80.00
G01 X21.6245 Y13.9512 F80.00
G01 X21.6176 Y14.0063 F80.00
G01 X21.6084 Y14.0595 F80.00
G01 X21.5966 Y14.1122 F80.00
G01 X21.5819 Y14.1654 F80.00
G01 X21.5646 Y14.2178 F80.00
G01 X21.5446 Y14.2700 F80.00
G01 X21.5215 Y14.3220 F80.00
G01 X21.4977 Y14.3692 F80.00
G01 X21.4694 Y14.4192 F80.00
G01 X21.4411 Y14.4640 F80.00
G01 X21.4084 Y14.5104 F80.00
G01 X21.3740 Y14.5544 F80.00
G01 X21.3377 Y14.5964 F80.00
G01 X21.3005 Y14.6355 F80.00
G01 X21.2596 Y14.6744 F80.00
G01 X21.2177 Y14.7104 F80.00
G01 X21.1754 Y14.7434 F80.00
G01 X21.1290 Y14.7761 F80.00
G01 X21.0823 Y14.8056 F80.00
G01 X21.0342 Y14.8327 F80.00
G01 X20.9870 Y14.8565 F80.00
G01 X20.9350 Y14.8796 F80.00
G01 X20.8828 Y14.8996 F80.00
G01 X20.8304 Y14.9169 F80.00
G01 X20.7772 Y14.9316 F80.00
G01 X20.7245 Y14.9434 F80.00
G01 X20.6713 Y14.9526 F80.00
G01 X20.6165 Y14.9594 F80.00
G01 X20.5614 Y14.9636 F80.00
G01 X20.5050 Y14.9650 F80.00
G01 X18.6550 Y14.9650 F80.00
G01 X18.5986 Y14.9636 F80.00
G01 X18.5438 Y14.9595 F80.00
G01 X18.4911 Y14.9530 F80.00
G01 X18.4355 Y14.9434 F80.00
G01 X18.3828 Y14.9316 F80.00
G01 X18.3296 Y14.9169 F80.00
G01 X18.2772 Y14.8996 F80.00
G01 X18.2250 Y14.8796 F80.00
G01 X18.1751 Y14.8575 F80.00
G01 X18.1236 Y14.8316 F80.00
G01 X18.0758 Y14.8044 F80.00
G01 X18.0310 Y14.7761 F80.00
G01 X17.9846 Y14.7434 F80.00
G01 X17.9423 Y14.7104 F80.00
G01 X17.9004 Y14.6744 F80.00
G01 X17.8604 Y14.6364 F80.00
G01 X17.8170 Y14.5903 F80.00
G01 X11.0671 Y14.5903 F80.00
G01 X11.0352 Y14.6312 F80.00
G01 X10.9990 Y14.6730 F80.00
G01 X10.9620 Y14.7120 F80.00
G01 X10.9212 Y14.7507 F80.00
G01 X10.8796 Y14.7865 F80.00
G01 X10.8374 Y14.8194 F80.00
G01 X10.7912 Y14.8519 F80.00
G01 X10.7447 Y14.8813 F80.00
G01 X10.6969 Y14.9083 F80.00
G01 X10.6498 Y14.9320 F80.00
G01 X10.5980 Y14.9550 F80.00
G01 X10.5485 Y14.9741 F80.00
G01 X10.4963 Y14.9914 F80.00
G01 X10.4433 Y15.0061 F80.00
G01 X10.3886 Y15.0185 F80.00
G01 X10.3355 Y15.0277 F80.00
G01 X10.2786 Y15.0347 F80.00
G01 X10.2237 Y15.0387 F80.00
G01 X10.1700 Y15.0400 F80.00
G01 X8.3100 Y15.0400 F80.00
G01 X8.2563 Y15.0387 F80.00
G01 X8.2014 Y15.0347 F80.00
G01 X8.1445 Y15.0277 F80.00
G01 X8.0914 Y15.0185 F80.00
G01 X8.0367 Y15.0061 F80.00
G01 X7.9837 Y14.9914 F80.00
G01 X7.9315 Y14.9741 F80.00
G01 X7.8820 Y14.9550 F80.00
G01 X7.8300 Y14.9319 F80.00
G01 X7.7810 Y14.9072 F80.00
G01 X7.7334 Y14.8801 F80.00
G01 X7.6867 Y14.8506 F80.00
G01 X7.6426 Y14.8194 F80.00
G01 X7.5988 Y14.7852 F80.00
G01 X7.5588 Y14.7507 F80.00
G01 X7.5180 Y14.7120 F80.00
G01 X7.4810 Y14.6730 F80.00
G01 X7.4450 Y14.6315 F80.00
G01 X7.4112 Y14.5882 F80.00
G01 X7.3781 Y14.5412 F80.00
G01 X7.3487 Y14.4947 F80.00
G01 X7.3217 Y14.4469 F80.00
G01 X7.2980 Y14.3998 F80.00
G01 X7.2750 Y14.3480 F80.00
G01 X7.2559 Y14.2985 F80.00
G01 X7.2386 Y14.2463 F80.00
G01 X7.2239 Y14.1933 F80.00
G01 X7.2118 Y14.1397 F80.00
G01 X7.2023 Y14.0855 F80.00
G01 X7.1955 Y14.0310 F80.00
G01 X7.1913 Y13.9737 F80.00
G00 Z1.9990
G00 X17.5313 Y18.9740
G01 F80.00
G01 Z-0.1493
G01 F80.00
G01 X17.5300 Y18.9200 F80.00
G01 X17.5314 Y18.8636 F80.00
G01 X17.5355 Y18.8088 F80.00
G01 X17.5424 Y18.7537 F80.00
G01 X17.5516 Y18.7005 F80.00
G01 X17.5640 Y18.6455 F80.00
G01 X17.5788 Y18.5923 F80.00
G01 X17.5962 Y18.5398 F80.00
G01 X17.6154 Y18.4900 F80.00
G01 X17.6385 Y18.4380 F80.00
G01 X17.6634 Y18.3886 F80.00
G01 X17.6906 Y18.3408 F80.00
G01 X17.7203 Y18.2940 F80.00
G01 X17.7516 Y18.2496 F80.00
G01 X17.7860 Y18.2056 F80.00
G01 X17.8223 Y18.1636 F80.00
G01 X17.8595 Y18.1245 F80.00
G01 X17.9004 Y18.0856 F80.00
G01 X17.9423 Y18.0496 F80.00
G01 X17.9846 Y18.0166 F80.00
G01 X18.0310 Y17.9839 F80.00
G01 X18.0777 Y17.9544 F80.00
G01 X18.1258 Y17.9273 F80.00
G01 X18.1751 Y17.9025 F80.00
G01 X18.2250 Y17.8804 F80.00
G01 X18.2772 Y17.8604 F80.00
G01 X18.3296 Y17.8431 F80.00
G01 X18.3828 Y17.8284 F80.00
G01 X18.4355 Y17.8166 F80.00
G01 X18.4887 Y17.8074 F80.00
G01 X18.5435 Y17.8006 F80.00
G01 X18.5986 Y17.7964 F80.00
G01 X18.6538 Y17.7950 F80.00
G01 X20.5050 Y17.7950 F80.00
G01 X20.5590 Y17.7963 F80.00
G01 X20.6165 Y17.8006 F80.00
G01 X20.6713 Y17.8074 F80.00
G01 X20.7245 Y17.8166 F80.00
G01 X20.7772 Y17.8284 F80.00
G01 X20.8304 Y17.8431 F80.00
G01 X20.8852 Y17.8612 F80.00
G01 X20.9350 Y17.8804 F80.00
G01 X20.9849 Y17.9025 F80.00
G01 X21.0364 Y17.9284 F80.00
G01 X21.0842 Y17.9556 F80.00
G01 X21.1290 Y17.9839 F80.00
G01 X21.1754 Y18.0166 F80.00
G01 X21.2177 Y18.0496 F80.00
G01 X21.2614 Y18.0873 F80.00
G01 X21.3005 Y18.1245 F80.00
G01 X21.3377 Y18.1636 F80.00
G01 X21.3754 Y18.2073 F80.00
G01 X21.4084 Y18.2496 F80.00
G01 X21.4397 Y18.2940 F80.00
G01 X21.4706 Y18.3427 F80.00
G01 X21.4977 Y18.3908 F80.00
G01 X21.5215 Y18.4380 F80.00
G01 X21.5448 Y18.4906 F80.00
G01 X21.5638 Y18.5398 F80.00
G01 X21.5812 Y18.5923 F80.00
G01 X21.5966 Y18.6478 F80.00
G01 X21.6084 Y18.7005 F80.00
G01 X21.6176 Y18.7537 F80.00
G01 X21.6247 Y18.8110 F80.00
G01 X21.6286 Y18.8636 F80.00
G01 X21.6300 Y18.9188 F80.00
G01 X21.6287 Y18.9740 F80.00
G01 X21.6245 Y19.0312 F80.00
G01 X21.6176 Y19.0863 F80.00
G01 X21.6084 Y19.1395 F80.00
G01 X21.5966 Y19.1922 F80.00
G01 X21.5819 Y19.2454 F80.00
G01 X21.5646 Y19.2978 F80.00
G01 X21.5446 Y19.3500 F80.00
G01 X21.5215 Y19.4020 F80.00
G01 X21.4977 Y19.4492 F80.00
G01 X21.4694 Y19.4992 F80.00
G01 X21.4411 Y19.5440 F80.00
G01 X21.4084 Y19.5904 F80.00
G01 X21.3740 Y19.6344 F80.00
G01 X21.3377 Y19.6764 F80.00
G01 X21.3005 Y19.7155 F80.00
G01 X21.2596 Y19.7544 F80.00
G01 X21.2177 Y19.7904 F80.00
G01 X21.1754 Y19.8234 F80.00
G01 X21.1290 Y19.8561 F80.00
G01 X21.0823 Y19.8856 F80.00
G01 X21.0342 Y19.9127 F80.00
G01 X20.9870 Y19.9365 F80.00
G01 X20.9350 Y19.9596 F80.00
G01 X20.8828 Y19.9796 F80.00
G01 X20.8304 Y19.9969 F80.00
G01 X20.7772 Y20.0116 F80.00
G01 X20.7245 Y20.0234 F80.00
G01 X20.6713 Y20.0326 F80.00
G01 X20.6165 Y20.0394 F80.00
G01 X20.5614 Y20.0436 F80.00
G01 X20.5062 Y20.0450 F80.00
G01 X18.6550 Y20.0450 F80.00
G01 X18.6010 Y20.0437 F80.00
G01 X18.5435 Y20.0394 F80.00
G01 X18.4887 Y20.0326 F80.00
G01 X18.4355 Y20.0234 F80.00
G01 X18.3828 Y20.0116 F80.00
G01 X18.3296 Y19.9969 F80.00
G01 X18.2748 Y19.9788 F80.00
G01 X18.2250 Y19.9596 F80.00
G01 X18.1751 Y19.9375 F80.00
G01 X18.1236 Y19.9116 F80.00
G01 X18.0758 Y19.8844 F80.00
G01 X18.0310 Y19.8561 F80.00
G01 X17.9846 Y19.8234 F80.00
G01 X17.9406 Y19.7890 F80.00
G01 X17.9004 Y19.7544 F80.00
G01 X17.8595 Y19.7155 F80.00
G01 X17.8206 Y19.6746 F80.00
G01 X17.7846 Y19.6327 F80.00
G01 X17.7516 Y19.5904 F80.00
G01 X17.7203 Y19.5460 F80.00
G01 X17.6907 Y19.4994 F80.00
G01 X17.6623 Y19.4492 F80.00
G01 X17.6385 Y19.4020 F80.00
G01 X17.6161 Y19.3516 F80.00
G01 X17.5954 Y19.2978 F80.00
G01 X17.5788 Y19.2477 F80.00
G01 X17.5640 Y19.1945 F80.00
G01 X17.5516 Y19.1395 F80.00
G01 X17.5424 Y19.0863 F80.00
G01 X17.5356 Y19.0315 F80.00
G01 X17.5313 Y18.9740 F80.00
G00 Z1.9990
G00 X17.5313 Y21.5140
G01 F80.00
G01 Z-0.1493
G01 F80.00
G01 X17.5300 Y21.4600 F80.00
G01 X17.5314 Y21.4036 F80.00
G01 X17.5355 Y21.3488 F80.00
G01 X17.5424 Y21.2937 F80.00
G01 X17.5516 Y21.2405 F80.00
G01 X17.5640 Y21.1855 F80.00
G01 X17.5788 Y21.1323 F80.00
G01 X17.5962 Y21.0798 F80.00
G01 X17.6154 Y21.0300 F80.00
G01 X17.6385 Y20.9780 F80.00
G01 X17.6634 Y20.9286 F80.00
G01 X17.6906 Y20.8808 F80.00
G01 X17.7203 Y20.8340 F80.00
G01 X17.7516 Y20.7896 F80.00
G01 X17.7860 Y20.7456 F80.00
G01 X17.8223 Y20.7036 F80.00
G01 X17.8595 Y20.6645 F80.00
G01 X17.9004 Y20.6256 F80.00
G01 X17.9423 Y20.5896 F80.00
G01 X17.9846 Y20.5566 F80.00
G01 X18.0310 Y20.5239 F80.00
G01 X18.0777 Y20.4944 F80.00
G01 X18.1258 Y20.4673 F80.00
G01 X18.1751 Y20.4425 F80.00
G01 X18.2250 Y20.4204 F80.00
G01 X18.2772 Y20.4004 F80.00
G01 X18.3296 Y20.3831 F80.00
G01 X18.3828 Y20.3684 F80.00
G01 X18.4355 Y20.3566 F80.00
G01 X18.4887 Y20.3474 F80.00
G01 X18.5435 Y20.3406 F80.00
G01 X18.5986 Y20.3364 F80.00
G01 X18.6538 Y20.3350 F80.00
G01 X20.5050 Y20.3350 F80.00
G01 X20.5590 Y20.3363 F80.00
G01 X20.6165 Y20.3406 F80.00
G01 X20.6713 Y20.3474 F80.00
G01 X20.7245 Y20.3566 F80.00
G01 X20.7772 Y20.3684 F80.00
G01 X20.8304 Y20.3831 F80.00
G01 X20.8852 Y20.4012 F80.00
G01 X20.9350 Y20.4204 F80.00
G01 X20.9849 Y20.4425 F80.00
G01 X21.0364 Y20.4684 F80.00
G01 X21.0842 Y20.4956 F80.00
G01 X21.1290 Y20.5239 F80.00
G01 X21.1754 Y20.5566 F80.00
G01 X21.2177 Y20.5896 F80.00
G01 X21.2614 Y20.6273 F80.00
G01 X21.3005 Y20.6645 F80.00
G01 X21.3377 Y20.7036 F80.00
G01 X21.3754 Y20.7473 F80.00
G01 X21.4084 Y20.7896 F80.00
G01 X21.4397 Y20.8340 F80.00
G01 X21.4706 Y20.8827 F80.00
G01 X21.4977 Y20.9308 F80.00
G01 X21.5215 Y20.9780 F80.00
G01 X21.5448 Y21.0306 F80.00
G01 X21.5638 Y21.0798 F80.00
G01 X21.5812 Y21.1323 F80.00
G01 X21.5966 Y21.1878 F80.00
G01 X21.6084 Y21.2405 F80.00
G01 X21.6176 Y21.2937 F80.00
G01 X21.6247 Y21.3510 F80.00
G01 X21.6286 Y21.4036 F80.00
G01 X21.6300 Y21.4588 F80.00
G01 X21.6287 Y21.5140 F80.00
G01 X21.6245 Y21.5712 F80.00
G01 X21.6176 Y21.6263 F80.00
G01 X21.6084 Y21.6795 F80.00
G01 X21.5966 Y21.7322 F80.00
G01 X21.5819 Y21.7854 F80.00
G01 X21.5646 Y21.8378 F80.00
G01 X21.5446 Y21.8900 F80.00
G01 X21.5215 Y21.9420 F80.00
G01 X21.4977 Y21.9892 F80.00
G01 X21.4694 Y22.0392 F80.00
G01 X21.4411 Y22.0840 F80.00
G01 X21.4084 Y22.1304 F80.00
G01 X21.3740 Y22.1744 F80.00
G01 X21.3377 Y22.2164 F80.00
G01 X21.3005 Y22.2555 F80.00
G01 X21.2596 Y22.2944 F80.00
G01 X21.2177 Y22.3304 F80.00
G01 X21.1754 Y22.3634 F80.00
G01 X21.1290 Y22.3961 F80.00
G01 X21.0823 Y22.4256 F80.00
G01 X21.0342 Y22.4527 F80.00
G01 X20.9870 Y22.4765 F80.00
G01 X20.9350 Y22.4996 F80.00
G01 X20.8828 Y22.5196 F80.00
G01 X20.8304 Y22.5369 F80.00
G01 X20.7772 Y22.5516 F80.00
G01 X20.7245 Y22.5634 F80.00
G01 X20.6713 Y22.5726 F80.00
G01 X20.6165 Y22.5794 F80.00
G01 X20.5614 Y22.5836 F80.00
G01 X20.5062 Y22.5850 F80.00
G01 X18.6550 Y22.5850 F80.00
G01 X18.6010 Y22.5837 F80.00
G01 X18.5435 Y22.5794 F80.00
G01 X18.4887 Y22.5726 F80.00
G01 X18.4355 Y22.5634 F80.00
G01 X18.3828 Y22.5516 F80.00
G01 X18.3296 Y22.5369 F80.00
G01 X18.2748 Y22.5188 F80.00
G01 X18.2250 Y22.4996 F80.00
G01 X18.1751 Y22.4775 F80.00
G01 X18.1236 Y22.4516 F80.00
G01 X18.0758 Y22.4244 F80.00
G01 X18.0310 Y22.3961 F80.00
G01 X17.9846 Y22.3634 F80.00
G01 X17.9406 Y22.3290 F80.00
G01 X17.9004 Y22.2944 F80.00
G01 X17.8595 Y22.2555 F80.00
G01 X17.8206 Y22.2146 F80.00
G01 X17.7846 Y22.1727 F80.00
G01 X17.7516 Y22.1304 F80.00
G01 X17.7203 Y22.0860 F80.00
G01 X17.6907 Y22.0394 F80.00
G01 X17.6623 Y21.9892 F80.00
G01 X17.6385 Y21.9420 F80.00
G01 X17.6161 Y21.8916 F80.00
G01 X17.5954 Y21.8378 F80.00
G01 X17.5788 Y21.7877 F80.00
G01 X17.5640 Y21.7345 F80.00
G01 X17.5516 Y21.6795 F80.00
G01 X17.5424 Y21.6263 F80.00
G01 X17.5356 Y21.5715 F80.00
G01 X17.5313 Y21.5140 F80.00
G00 Z1.9990
G00 X17.5313 Y24.0540
G01 F80.00
G01 Z-0.1493
G01 F80.00
G01 X17.5300 Y24.0000 F80.00
G01 X17.5314 Y23.9436 F80.00
G01 X17.5355 Y23.8888 F80.00
G01 X17.5424 Y23.8337 F80.00
G01 X17.5516 Y23.7805 F80.00
G01 X17.5640 Y23.7255 F80.00
G01 X17.5788 Y23.6723 F80.00
G01 X17.5962 Y23.6198 F80.00
G01 X17.6154 Y23.5700 F80.00
G01 X17.6385 Y23.5180 F80.00
G01 X17.6634 Y23.4686 F80.00
G01 X17.6906 Y23.4208 F80.00
G01 X17.7203 Y23.3740 F80.00
G01 X17.7516 Y23.3296 F80.00
G01 X17.7860 Y23.2856 F80.00
G01 X17.8223 Y23.2436 F80.00
G01 X17.8595 Y23.2045 F80.00
G01 X17.9004 Y23.1656 F80.00
G01 X17.9423 Y23.1296 F80.00
G01 X17.9846 Y23.0966 F80.00
G01 X18.0310 Y23.0639 F80.00
G01 X18.0777 Y23.0344 F80.00
G01 X18.1258 Y23.0073 F80.00
G01 X18.1751 Y22.9825 F80.00
G01 X18.2250 Y22.9604 F80.00
G01 X18.2772 Y22.9404 F80.00
G01 X18.3296 Y22.9231 F80.00
G01 X18.3828 Y22.9084 F80.00
G01 X18.4355 Y22.8966 F80.00
G01 X18.4887 Y22.8874 F80.00
G01 X18.5435 Y22.8806 F80.00
G01 X18.5986 Y22.8764 F80.00
G01 X18.6538 Y22.8750 F80.00
G01 X20.5050 Y22.8750 F80.00
G01 X20.5590 Y22.8763 F80.00
G01 X20.6165 Y22.8806 F80.00
G01 X20.6713 Y22.8874 F80.00
G01 X20.7245 Y22.8966 F80.00
G01 X20.7772 Y22.9084 F80.00
G01 X20.8304 Y22.9231 F80.00
G01 X20.8852 Y22.9412 F80.00
G01 X20.9350 Y22.9604 F80.00
G01 X20.9849 Y22.9825 F80.00
G01 X21.0364 Y23.0084 F80.00
G01 X21.0842 Y23.0356 F80.00
G01 X21.1290 Y23.0639 F80.00
G01 X21.1754 Y23.0966 F80.00
G01 X21.2177 Y23.1296 F80.00
G01 X21.2614 Y23.1673 F80.00
G01 X21.3005 Y23.2045 F80.00
G01 X21.3377 Y23.2436 F80.00
G01 X21.3754 Y23.2873 F80.00
G01 X21.4084 Y23.3296 F80.00
G01 X21.4397 Y23.3740 F80.00
G01 X21.4706 Y23.4227 F80.00
G01 X21.4977 Y23.4708 F80.00
G01 X21.5215 Y23.5180 F80.00
G01 X21.5448 Y23.5706 F80.00
G01 X21.5638 Y23.6198 F80.00
G01 X21.5812 Y23.6723 F80.00
G01 X21.5966 Y23.7278 F80.00
G01 X21.6084 Y23.7805 F80.00
G01 X21.6176 Y23.8337 F80.00
G01 X21.6247 Y23.8910 F80.00
G01 X21.6286 Y23.9436 F80.00
G01 X21.6300 Y23.9988 F80.00
G01 X21.6287 Y24.0540 F80.00
G01 X21.6245 Y24.1112 F80.00
G01 X21.6176 Y24.1663 F80.00
G01 X21.6084 Y24.2195 F80.00
G01 X21.5966 Y24.2722 F80.00
G01 X21.5819 Y24.3254 F80.00
G01 X21.5646 Y24.3778 F80.00
G01 X21.5446 Y24.4300 F80.00
G01 X21.5215 Y24.4820 F80.00
G01 X21.4977 Y24.5292 F80.00
G01 X21.4694 Y24.5792 F80.00
G01 X21.4411 Y24.6240 F80.00
G01 X21.4084 Y24.6704 F80.00
G01 X21.3740 Y24.7144 F80.00
G01 X21.3377 Y24.7564 F80.00
G01 X21.3005 Y24.7955 F80.00
G01 X21.2596 Y24.8344 F80.00
G01 X21.2177 Y24.8704 F80.00
G01 X21.1754 Y24.9034 F80.00
G01 X21.1290 Y24.9361 F80.00
G01 X21.0823 Y24.9656 F80.00
G01 X21.0342 Y24.9927 F80.00
G01 X20.9870 Y25.0165 F80.00
G01 X20.9350 Y25.0396 F80.00
G01 X20.8828 Y25.0596 F80.00
G01 X20.8304 Y25.0769 F80.00
G01 X20.7772 Y25.0916 F80.00
G01 X20.7245 Y25.1034 F80.00
G01 X20.6713 Y25.1126 F80.00
G01 X20.6165 Y25.1194 F80.00
G01 X20.5614 Y25.1236 F80.00
G01 X20.5062 Y25.1250 F80.00
G01 X18.6550 Y25.1250 F80.00
G01 X18.6010 Y25.1237 F80.00
G01 X18.5435 Y25.1194 F80.00
G01 X18.4887 Y25.1126 F80.00
G01 X18.4355 Y25.1034 F80.00
G01 X18.3828 Y25.0916 F80.00
G01 X18.3296 Y25.0769 F80.00
G01 X18.2748 Y25.0588 F80.00
G01 X18.2250 Y25.0396 F80.00
G01 X18.1751 Y25.0175 F80.00
G01 X18.1236 Y24.9916 F80.00
G01 X18.0758 Y24.9644 F80.00
G01 X18.0310 Y24.9361 F80.00
G01 X17.9846 Y24.9034 F80.00
G01 X17.9406 Y24.8690 F80.00
G01 X17.9004 Y24.8344 F80.00
G01 X17.8595 Y24.7955 F80.00
G01 X17.8206 Y24.7546 F80.00
G01 X17.7846 Y24.7127 F80.00
G01 X17.7516 Y24.6704 F80.00
G01 X17.7203 Y24.6260 F80.00
G01 X17.6907 Y24.5794 F80.00
G01 X17.6623 Y24.5292 F80.00
G01 X17.6385 Y24.4820 F80.00
G01 X17.6161 Y24.4316 F80.00
G01 X17.5954 Y24.3778 F80.00
G01 X17.5788 Y24.3277 F80.00
G01 X17.5640 Y24.2745 F80.00
G01 X17.5516 Y24.2195 F80.00
G01 X17.5424 Y24.1663 F80.00
G01 X17.5356 Y24.1115 F80.00
G01 X17.5313 Y24.0540 F80.00
G00 Z1.9990
G00 X17.5313 Y26.5940
G01 F80.00
G01 Z-0.1493
G01 F80.00
G01 X17.5300 Y26.5400 F80.00
G01 X17.5314 Y26.4836 F80.00
G01 X17.5355 Y26.4288 F80.00
G01 X17.5424 Y26.3737 F80.00
G01 X17.5516 Y26.3205 F80.00
G01 X17.5640 Y26.2655 F80.00
G01 X17.5788 Y26.2123 F80.00
G01 X17.5962 Y26.1598 F80.00
G01 X17.6154 Y26.1100 F80.00
G01 X17.6385 Y26.0580 F80.00
G01 X17.6634 Y26.0086 F80.00
G01 X17.6906 Y25.9608 F80.00
G01 X17.7203 Y25.9140 F80.00
G01 X17.7516 Y25.8696 F80.00
G01 X17.7860 Y25.8256 F80.00
G01 X17.8223 Y25.7836 F80.00
G01 X17.8595 Y25.7445 F80.00
G01 X17.9004 Y25.7056 F80.00
G01 X17.9423 Y25.6696 F80.00
G01 X17.9846 Y25.6366 F80.00
G01 X18.0310 Y25.6039 F80.00
G01 X18.0777 Y25.5744 F80.00
G01 X18.1258 Y25.5473 F80.00
G01 X18.1751 Y25.5225 F80.00
G01 X18.2250 Y25.5004 F80.00
G01 X18.2772 Y25.4804 F80.00
G01 X18.3296 Y25.4631 F80.00
G01 X18.3828 Y25.4484 F80.00
G01 X18.4355 Y25.4366 F80.00
G01 X18.4887 Y25.4274 F80.00
G01 X18.5435 Y25.4206 F80.00
G01 X18.5986 Y25.4164 F80.00
G01 X18.6538 Y25.4150 F80.00
G01 X20.5050 Y25.4150 F80.00
G01 X20.5590 Y25.4163 F80.00
G01 X20.6165 Y25.4206 F80.00
G01 X20.6713 Y25.4274 F80.00
G01 X20.7245 Y25.4366 F80.00
G01 X20.7772 Y25.4484 F80.00
G01 X20.8304 Y25.4631 F80.00
G01 X20.8852 Y25.4812 F80.00
G01 X20.9350 Y25.5004 F80.00
G01 X20.9849 Y25.5225 F80.00
G01 X21.0364 Y25.5484 F80.00
G01 X21.0842 Y25.5756 F80.00
G01 X21.1290 Y25.6039 F80.00
G01 X21.1754 Y25.6366 F80.00
G01 X21.2177 Y25.6696 F80.00
G01 X21.2614 Y25.7073 F80.00
G01 X21.3005 Y25.7445 F80.00
G01 X21.3377 Y25.7836 F80.00
G01 X21.3754 Y25.8273 F80.00
G01 X21.4084 Y25.8696 F80.00
G01 X21.4397 Y25.9140 F80.00
G01 X21.4706 Y25.9627 F80.00
G01 X21.4977 Y26.0108 F80.00
G01 X21.5215 Y26.0580 F80.00
G01 X21.5448 Y26.1106 F80.00
G01 X21.5638 Y26.1598 F80.00
G01 X21.5812 Y26.2123 F80.00
G01 X21.5966 Y26.2678 F80.00
G01 X21.6084 Y26.3205 F80.00
G01 X21.6176 Y26.3737 F80.00
G01 X21.6247 Y26.4310 F80.00
G01 X21.6286 Y26.4836 F80.00
G01 X21.6300 Y26.5388 F80.00
G01 X21.6287 Y26.5940 F80.00
G01 X21.6245 Y26.6512 F80.00
G01 X21.6176 Y26.7063 F80.00
G01 X21.6084 Y26.7595 F80.00
G01 X21.5966 Y26.8122 F80.00
G01 X21.5819 Y26.8654 F80.00
G01 X21.5646 Y26.9178 F80.00
G01 X21.5446 Y26.9700 F80.00
G01 X21.5215 Y27.0220 F80.00
G01 X21.4977 Y27.0692 F80.00
G01 X21.4694 Y27.1192 F80.00
G01 X21.4411 Y27.1640 F80.00
G01 X21.4084 Y27.2104 F80.00
G01 X21.3740 Y27.2544 F80.00
G01 X21.3377 Y27.2964 F80.00
G01 X21.3005 Y27.3355 F80.00
G01 X21.2596 Y27.3744 F80.00
G01 X21.2177 Y27.4104 F80.00
G01 X21.1754 Y27.4434 F80.00
G01 X21.1290 Y27.4761 F80.00
G01 X21.0823 Y27.5056 F80.00
G01 X21.0342 Y27.5327 F80.00
G01 X20.9870 Y27.5565 F80.00
G01 X20.9350 Y27.5796 F80.00
G01 X20.8828 Y27.5996 F80.00
G01 X20.8304 Y27.6169 F80.00
G01 X20.7772 Y27.6316 F80.00
G01 X20.7245 Y27.6434 F80.00
G01 X20.6713 Y27.6526 F80.00
G01 X20.6165 Y27.6594 F80.00
G01 X20.5614 Y27.6636 F80.00
G01 X20.5062 Y27.6650 F80.00
G01 X18.6550 Y27.6650 F80.00
G01 X18.6010 Y27.6637 F80.00
G01 X18.5435 Y27.6594 F80.00
G01 X18.4887 Y27.6526 F80.00
G01 X18.4355 Y27.6434 F80.00
G01 X18.3828 Y27.6316 F80.00
G01 X18.3296 Y27.6169 F80.00
G01 X18.2748 Y27.5988 F80.00
G01 X18.2250 Y27.5796 F80.00
G01 X18.1751 Y27.5575 F80.00
G01 X18.1236 Y27.5316 F80.00
G01 X18.0758 Y27.5044 F80.00
G01 X18.0310 Y27.4761 F80.00
G01 X17.9846 Y27.4434 F80.00
G01 X17.9406 Y27.4090 F80.00
G01 X17.9004 Y27.3744 F80.00
G01 X17.8595 Y27.3355 F80.00
G01 X17.8206 Y27.2946 F80.00
G01 X17.7846 Y27.2527 F80.00
G01 X17.7516 Y27.2104 F80.00
G01 X17.7203 Y27.1660 F80.00
G01 X17.6907 Y27.1194 F80.00
G01 X17.6623 Y27.0692 F80.00
G01 X17.6385 Y27.0220 F80.00
G01 X17.6161 Y26.9716 F80.00
G01 X17.5954 Y26.9178 F80.00
G01 X17.5788 Y26.8677 F80.00
G01 X17.5640 Y26.8145 F80.00
G01 X17.5516 Y26.7595 F80.00
G01 X17.5424 Y26.7063 F80.00
G01 X17.5356 Y26.6515 F80.00
G01 X17.5313 Y26.5940 F80.00
G00 Z1.9990
G00 X17.5313 Y29.1340
G01 F80.00
G01 Z-0.1493
G01 F80.00
G01 X17.5300 Y29.0800 F80.00
G01 X17.5314 Y29.0236 F80.00
G01 X17.5355 Y28.9688 F80.00
G01 X17.5424 Y28.9137 F80.00
G01 X17.5516 Y28.8605 F80.00
G01 X17.5640 Y28.8055 F80.00
G01 X17.5788 Y28.7523 F80.00
G01 X17.5962 Y28.6998 F80.00
G01 X17.6154 Y28.6500 F80.00
G01 X17.6385 Y28.5980 F80.00
G01 X17.6634 Y28.5486 F80.00
G01 X17.6906 Y28.5008 F80.00
G01 X17.7203 Y28.4540 F80.00
G01 X17.7516 Y28.4096 F80.00
G01 X17.7860 Y28.3656 F80.00
G01 X17.8223 Y28.3236 F80.00
G01 X17.8595 Y28.2845 F80.00
G01 X17.9004 Y28.2456 F80.00
G01 X17.9423 Y28.2096 F80.00
G01 X17.9846 Y28.1766 F80.00
G01 X18.0310 Y28.1439 F80.00
G01 X18.0777 Y28.1144 F80.00
G01 X18.1258 Y28.0873 F80.00
G01 X18.1751 Y28.0625 F80.00
G01 X18.2250 Y28.0404 F80.00
G01 X18.2772 Y28.0204 F80.00
G01 X18.3296 Y28.0031 F80.00
G01 X18.3828 Y27.9884 F80.00
G01 X18.4355 Y27.9766 F80.00
G01 X18.4887 Y27.9674 F80.00
G01 X18.5435 Y27.9606 F80.00
G01 X18.5986 Y27.9564 F80.00
G01 X18.6538 Y27.9550 F80.00
G01 X20.5050 Y27.9550 F80.00
G01 X20.5590 Y27.9563 F80.00
G01 X20.6165 Y27.9606 F80.00
G01 X20.6713 Y27.9674 F80.00
G01 X20.7245 Y27.9766 F80.00
G01 X20.7772 Y27.9884 F80.00
G01 X20.8304 Y28.0031 F80.00
G01 X20.8852 Y28.0212 F80.00
G01 X20.9350 Y28.0404 F80.00
G01 X20.9849 Y28.0625 F80.00
G01 X21.0364 Y28.0884 F80.00
G01 X21.0842 Y28.1156 F80.00
G01 X21.1290 Y28.1439 F80.00
G01 X21.1754 Y28.1766 F80.00
G01 X21.2177 Y28.2096 F80.00
G01 X21.2614 Y28.2473 F80.00
G01 X21.3005 Y28.2845 F80.00
G01 X21.3377 Y28.3236 F80.00
G01 X21.3754 Y28.3673 F80.00
G01 X21.4084 Y28.4096 F80.00
G01 X21.4397 Y28.4540 F80.00
G01 X21.4706 Y28.5027 F80.00
G01 X21.4977 Y28.5508 F80.00
G01 X21.5215 Y28.5980 F80.00
G01 X21.5448 Y28.6506 F80.00
G01 X21.5638 Y28.6998 F80.00
G01 X21.5812 Y28.7523 F80.00
G01 X21.5966 Y28.8078 F80.00
G01 X21.6084 Y28.8605 F80.00
G01 X21.6176 Y28.9137 F80.00
G01 X21.6247 Y28.9710 F80.00
G01 X21.6286 Y29.0236 F80.00
G01 X21.6300 Y29.0788 F80.00
G01 X21.6287 Y29.1340 F80.00
G01 X21.6245 Y29.1912 F80.00
G01 X21.6176 Y29.2463 F80.00
G01 X21.6084 Y29.2995 F80.00
G01 X21.5966 Y29.3522 F80.00
G01 X21.5819 Y29.4054 F80.00
G01 X21.5646 Y29.4578 F80.00
G01 X21.5446 Y29.5100 F80.00
G01 X21.5215 Y29.5620 F80.00
G01 X21.4977 Y29.6092 F80.00
G01 X21.4694 Y29.6592 F80.00
G01 X21.4411 Y29.7040 F80.00
G01 X21.4084 Y29.7504 F80.00
G01 X21.3740 Y29.7944 F80.00
G01 X21.3377 Y29.8364 F80.00
G01 X21.3005 Y29.8755 F80.00
G01 X21.2596 Y29.9144 F80.00
G01 X21.2177 Y29.9504 F80.00
G01 X21.1754 Y29.9834 F80.00
G01 X21.1290 Y30.0161 F80.00
G01 X21.0823 Y30.0456 F80.00
G01 X21.0342 Y30.0727 F80.00
G01 X20.9870 Y30.0965 F80.00
G01 X20.9350 Y30.1196 F80.00
G01 X20.8828 Y30.1396 F80.00
G01 X20.8304 Y30.1569 F80.00
G01 X20.7772 Y30.1716 F80.00
G01 X20.7245 Y30.1834 F80.00
G01 X20.6713 Y30.1926 F80.00
G01 X20.6165 Y30.1994 F80.00
G01 X20.5614 Y30.2036 F80.00
G01 X20.5062 Y30.2050 F80.00
G01 X18.6550 Y30.2050 F80.00
G01 X18.6010 Y30.2037 F80.00
G01 X18.5435 Y30.1994 F80.00
G01 X18.4887 Y30.1926 F80.00
G01 X18.4355 Y30.1834 F80.00
G01 X18.3828 Y30.1716 F80.00
G01 X18.3296 Y30.1569 F80.00
G01 X18.2748 Y30.1388 F80.00
G01 X18.2250 Y30.1196 F80.00
G01 X18.1751 Y30.0975 F80.00
G01 X18.1236 Y30.0716 F80.00
G01 X18.0758 Y30.0444 F80.00
G01 X18.0310 Y30.0161 F80.00
G01 X17.9846 Y29.9834 F80.00
G01 X17.9406 Y29.9490 F80.00
G01 X17.9004 Y29.9144 F80.00
G01 X17.8595 Y29.8755 F80.00
G01 X17.8206 Y29.8346 F80.00
G01 X17.7846 Y29.7927 F80.00
G01 X17.7516 Y29.7504 F80.00
G01 X17.7203 Y29.7060 F80.00
G01 X17.6907 Y29.6594 F80.00
G01 X17.6623 Y29.6092 F80.00
G01 X17.6385 Y29.5620 F80.00
G01 X17.6161 Y29.5116 F80.00
G01 X17.5954 Y29.4578 F80.00
G01 X17.5788 Y29.4077 F80.00
G01 X17.5640 Y29.3545 F80.00
G01 X17.5516 Y29.2995 F80.00
G01 X17.5424 Y29.2463 F80.00
G01 X17.5356 Y29.1915 F80.00
G01 X17.5313 Y29.1340 F80.00
G00 Z1.9990
G00 X17.5313 Y31.6740
G01 F80.00
G01 Z-0.1493
G01 F80.00
G01 X17.5300 Y31.6200 F80.00
G01 X17.5314 Y31.5636 F80.00
G01 X17.5355 Y31.5088 F80.00
G01 X17.5424 Y31.4537 F80.00
G01 X17.5516 Y31.4005 F80.00
G01 X17.5640 Y31.3455 F80.00
G01 X17.5788 Y31.2923 F80.00
G01 X17.5962 Y31.2398 F80.00
G01 X17.6154 Y31.1900 F80.00
G01 X17.6385 Y31.1380 F80.00
G01 X17.6634 Y31.0886 F80.00
G01 X17.6906 Y31.0408 F80.00
G01 X17.7203 Y30.9940 F80.00
G01 X17.7516 Y30.9496 F80.00
G01 X17.7860 Y30.9056 F80.00
G01 X17.8223 Y30.8636 F80.00
G01 X17.8595 Y30.8245 F80.00
G01 X17.9004 Y30.7856 F80.00
G01 X17.9423 Y30.7496 F80.00
G01 X17.9846 Y30.7166 F80.00
G01 X18.0310 Y30.6839 F80.00
G01 X18.0777 Y30.6544 F80.00
G01 X18.1258 Y30.6273 F80.00
G01 X18.1751 Y30.6025 F80.00
G01 X18.2250 Y30.5804 F80.00
G01 X18.2772 Y30.5604 F80.00
G01 X18.3296 Y30.5431 F80.00
G01 X18.3828 Y30.5284 F80.00
G01 X18.4355 Y30.5166 F80.00
G01 X18.4887 Y30.5074 F80.00
G01 X18.5435 Y30.5006 F80.00
G01 X18.5986 Y30.4964 F80.00
G01 X18.6538 Y30.4950 F80.00
G01 X20.5050 Y30.4950 F80.00
G01 X20.5590 Y30.4963 F80.00
G01 X20.6165 Y30.5006 F80.00
G01 X20.6713 Y30.5074 F80.00
G01 X20.7245 Y30.5166 F80.00
G01 X20.7772 Y30.5284 F80.00
G01 X20.8304 Y30.5431 F80.00
G01 X20.8852 Y30.5612 F80.00
G01 X20.9350 Y30.5804 F80.00
G01 X20.9849 Y30.6025 F80.00
G01 X21.0364 Y30.6284 F80.00
G01 X21.0842 Y30.6556 F80.00
G01 X21.1290 Y30.6839 F80.00
G01 X21.1754 Y30.7166 F80.00
G01 X21.2177 Y30.7496 F80.00
G01 X21.2614 Y30.7873 F80.00
G01 X21.3005 Y30.8245 F80.00
G01 X21.3377 Y30.8636 F80.00
G01 X21.3754 Y30.9073 F80.00
G01 X21.4084 Y30.9496 F80.00
G01 X21.4397 Y30.9940 F80.00
G01 X21.4706 Y31.0427 F80.00
G01 X21.4977 Y31.0908 F80.00
G01 X21.5215 Y31.1380 F80.00
G01 X21.5448 Y31.1906 F80.00
G01 X21.5638 Y31.2398 F80.00
G01 X21.5812 Y31.2923 F80.00
G01 X21.5966 Y31.3478 F80.00
G01 X21.6084 Y31.4005 F80.00
G01 X21.6176 Y31.4537 F80.00
G01 X21.6247 Y31.5110 F80.00
G01 X21.6286 Y31.5636 F80.00
G01 X21.6300 Y31.6188 F80.00
G01 X21.6287 Y31.6740 F80.00
G01 X21.6245 Y31.7312 F80.00
G01 X21.6176 Y31.7863 F80.00
G01 X21.6084 Y31.8395 F80.00
G01 X21.5966 Y31.8922 F80.00
G01 X21.5819 Y31.9454 F80.00
G01 X21.5646 Y31.9978 F80.00
G01 X21.5446 Y32.0500 F80.00
G01 X21.5215 Y32.1020 F80.00
G01 X21.4977 Y32.1492 F80.00
G01 X21.4694 Y32.1992 F80.00
G01 X21.4411 Y32.2440 F80.00
G01 X21.4084 Y32.2904 F80.00
G01 X21.3740 Y32.3344 F80.00
G01 X21.3377 Y32.3764 F80.00
G01 X21.3005 Y32.4155 F80.00
G01 X21.2596 Y32.4544 F80.00
G01 X21.2177 Y32.4904 F80.00
G01 X21.1754 Y32.5234 F80.00
G01 X21.1290 Y32.5561 F80.00
G01 X21.0823 Y32.5856 F80.00
G01 X21.0342 Y32.6127 F80.00
G01 X20.9870 Y32.6365 F80.00
G01 X20.9350 Y32.6596 F80.00
G01 X20.8828 Y32.6796 F80.00
G01 X20.8304 Y32.6969 F80.00
G01 X20.7772 Y32.7116 F80.00
G01 X20.7245 Y32.7234 F80.00
G01 X20.6713 Y32.7326 F80.00
G01 X20.6165 Y32.7394 F80.00
G01 X20.5614 Y32.7436 F80.00
G01 X20.5062 Y32.7450 F80.00
G01 X18.6550 Y32.7450 F80.00
G01 X18.6010 Y32.7437 F80.00
G01 X18.5435 Y32.7394 F80.00
G01 X18.4887 Y32.7326 F80.00
G01 X18.4355 Y32.7234 F80.00
G01 X18.3828 Y32.7116 F80.00
G01 X18.3296 Y32.6969 F80.00
G01 X18.2748 Y32.6788 F80.00
G01 X18.2250 Y32.6596 F80.00
G01 X18.1751 Y32.6375 F80.00
G01 X18.1236 Y32.6116 F80.00
G01 X18.0758 Y32.5844 F80.00
G01 X18.0310 Y32.5561 F80.00
G01 X17.9846 Y32.5234 F80.00
G01 X17.9406 Y32.4890 F80.00
G01 X17.9004 Y32.4544 F80.00
G01 X17.8595 Y32.4155 F80.00
G01 X17.8206 Y32.3746 F80.00
G01 X17.7846 Y32.3327 F80.00
G01 X17.7516 Y32.2904 F80.00
G01 X17.7203 Y32.2460 F80.00
G01 X17.6907 Y32.1994 F80.00
G01 X17.6623 Y32.1492 F80.00
G01 X17.6385 Y32.1020 F80.00
G01 X17.6161 Y32.0516 F80.00
G01 X17.5954 Y31.9978 F80.00
G01 X17.5788 Y31.9477 F80.00
G01 X17.5640 Y31.8945 F80.00
G01 X17.5516 Y31.8395 F80.00
G01 X17.5424 Y31.7863 F80.00
G01 X17.5356 Y31.7315 F80.00
G01 X17.5313 Y31.6740 F80.00
G00 Z1.9990
G00 X17.5313 Y34.2140
G01 F80.00
G01 Z-0.1493
G01 F80.00
G01 X17.5300 Y34.1600 F80.00
G01 X17.5314 Y34.1036 F80.00
G01 X17.5355 Y34.0488 F80.00
G01 X17.5424 Y33.9937 F80.00
G01 X17.5516 Y33.9405 F80.00
G01 X17.5640 Y33.8855 F80.00
G01 X17.5788 Y33.8323 F80.00
G01 X17.5962 Y33.7798 F80.00
G01 X17.6154 Y33.7300 F80.00
G01 X17.6385 Y33.6780 F80.00
G01 X17.6634 Y33.6286 F80.00
G01 X17.6906 Y33.5808 F80.00
G01 X17.7203 Y33.5340 F80.00
G01 X17.7516 Y33.4896 F80.00
G01 X17.7860 Y33.4456 F80.00
G01 X17.8223 Y33.4036 F80.00
G01 X17.8595 Y33.3645 F80.00
G01 X17.9004 Y33.3256 F80.00
G01 X17.9423 Y33.2896 F80.00
G01 X17.9846 Y33.2566 F80.00
G01 X18.0310 Y33.2239 F80.00
G01 X18.0777 Y33.1944 F80.00
G01 X18.1258 Y33.1673 F80.00
G01 X18.1751 Y33.1425 F80.00
G01 X18.2250 Y33.1204 F80.00
G01 X18.2772 Y33.1004 F80.00
G01 X18.3296 Y33.0831 F80.00
G01 X18.3828 Y33.0684 F80.00
G01 X18.4355 Y33.0566 F80.00
G01 X18.4887 Y33.0474 F80.00
G01 X18.5435 Y33.0406 F80.00
G01 X18.5986 Y33.0364 F80.00
G01 X18.6538 Y33.0350 F80.00
G01 X20.5050 Y33.0350 F80.00
G01 X20.5590 Y33.0363 F80.00
G01 X20.6165 Y33.0406 F80.00
G01 X20.6713 Y33.0474 F80.00
G01 X20.7245 Y33.0566 F80.00
G01 X20.7772 Y33.0684 F80.00
G01 X20.8304 Y33.0831 F80.00
G01 X20.8852 Y33.1012 F80.00
G01 X20.9350 Y33.1204 F80.00
G01 X20.9849 Y33.1425 F80.00
G01 X21.0364 Y33.1684 F80.00
G01 X21.0842 Y33.1956 F80.00
G01 X21.1290 Y33.2239 F80.00
G01 X21.1754 Y33.2566 F80.00
G01 X21.2177 Y33.2896 F80.00
G01 X21.2614 Y33.3273 F80.00
G01 X21.3005 Y33.3645 F80.00
G01 X21.3377 Y33.4036 F80.00
G01 X21.3754 Y33.4473 F80.00
G01 X21.4084 Y33.4896 F80.00
G01 X21.4397 Y33.5340 F80.00
G01 X21.4706 Y33.5827 F80.00
G01 X21.4977 Y33.6308 F80.00
G01 X21.5215 Y33.6780 F80.00
G01 X21.5448 Y33.7306 F80.00
G01 X21.5638 Y33.7798 F80.00
G01 X21.5812 Y33.8323 F80.00
G01 X21.5966 Y33.8878 F80.00
G01 X21.6084 Y33.9405 F80.00
G01 X21.6176 Y33.9937 F80.00
G01 X21.6247 Y34.0510 F80.00
G01 X21.6286 Y34.1036 F80.00
G01 X21.6300 Y34.1588 F80.00
G01 X21.6287 Y34.2140 F80.00
G01 X21.6245 Y34.2712 F80.00
G01 X21.6176 Y34.3263 F80.00
G01 X21.6084 Y34.3795 F80.00
G01 X21.5966 Y34.4322 F80.00
G01 X21.5819 Y34.4854 F80.00
G01 X21.5646 Y34.5378 F80.00
G01 X21.5446 Y34.5900 F80.00
G01 X21.5215 Y34.6420 F80.00
G01 X21.4977 Y34.6892 F80.00
G01 X21.4694 Y34.7392 F80.00
G01 X21.4411 Y34.7840 F80.00
G01 X21.4084 Y34.8304 F80.00
G01 X21.3740 Y34.8744 F80.00
G01 X21.3377 Y34.9164 F80.00
G01 X21.3005 Y34.9555 F80.00
G01 X21.2596 Y34.9944 F80.00
G01 X21.2177 Y35.0304 F80.00
G01 X21.1754 Y35.0634 F80.00
G01 X21.1290 Y35.0961 F80.00
G01 X21.0823 Y35.1256 F80.00
G01 X21.0342 Y35.1527 F80.00
G01 X20.9870 Y35.1765 F80.00
G01 X20.9350 Y35.1996 F80.00
G01 X20.8828 Y35.2196 F80.00
G01 X20.8304 Y35.2369 F80.00
G01 X20.7772 Y35.2516 F80.00
G01 X20.7245 Y35.2634 F80.00
G01 X20.6713 Y35.2726 F80.00
G01 X20.6165 Y35.2794 F80.00
G01 X20.5614 Y35.2836 F80.00
G01 X20.5062 Y35.2850 F80.00
G01 X18.6550 Y35.2850 F80.00
G01 X18.6010 Y35.2837 F80.00
G01 X18.5435 Y35.2794 F80.00
G01 X18.4887 Y35.2726 F80.00
G01 X18.4355 Y35.2634 F80.00
G01 X18.3828 Y35.2516 F80.00
G01 X18.3296 Y35.2369 F80.00
G01 X18.2748 Y35.2188 F80.00
G01 X18.2250 Y35.1996 F80.00
G01 X18.1751 Y35.1775 F80.00
G01 X18.1236 Y35.1516 F80.00
G01 X18.0758 Y35.1244 F80.00
G01 X18.0310 Y35.0961 F80.00
G01 X17.9846 Y35.0634 F80.00
G01 X17.9406 Y35.0290 F80.00
G01 X17.9004 Y34.9944 F80.00
G01 X17.8595 Y34.9555 F80.00
G01 X17.8206 Y34.9146 F80.00
G01 X17.7846 Y34.8727 F80.00
G01 X17.7516 Y34.8304 F80.00
G01 X17.7203 Y34.7860 F80.00
G01 X17.6907 Y34.7394 F80.00
G01 X17.6623 Y34.6892 F80.00
G01 X17.6385 Y34.6420 F80.00
G01 X17.6161 Y34.5916 F80.00
G01 X17.5954 Y34.5378 F80.00
G01 X17.5788 Y34.4877 F80.00
G01 X17.5640 Y34.4345 F80.00
G01 X17.5516 Y34.3795 F80.00
G01 X17.5424 Y34.3263 F80.00
G01 X17.5356 Y34.2715 F80.00
G01 X17.5313 Y34.2140 F80.00
G00 Z1.9990
G00 X17.5313 Y36.7540
G01 F80.00
G01 Z-0.1493
G01 F80.00
G01 X17.5300 Y36.7000 F80.00
G01 X17.5314 Y36.6436 F80.00
G01 X17.5355 Y36.5888 F80.00
G01 X17.5424 Y36.5337 F80.00
G01 X17.5516 Y36.4805 F80.00
G01 X17.5640 Y36.4255 F80.00
G01 X17.5788 Y36.3723 F80.00
G01 X17.5962 Y36.3198 F80.00
G01 X17.6154 Y36.2700 F80.00
G01 X17.6385 Y36.2180 F80.00
G01 X17.6634 Y36.1686 F80.00
G01 X17.6906 Y36.1208 F80.00
G01 X17.7203 Y36.0740 F80.00
G01 X17.7516 Y36.0296 F80.00
G01 X17.7860 Y35.9856 F80.00
G01 X17.8223 Y35.9436 F80.00
G01 X17.8595 Y35.9045 F80.00
G01 X17.9004 Y35.8656 F80.00
G01 X17.9423 Y35.8296 F80.00
G01 X17.9846 Y35.7966 F80.00
G01 X18.0310 Y35.7639 F80.00
G01 X18.0777 Y35.7344 F80.00
G01 X18.1258 Y35.7073 F80.00
G01 X18.1751 Y35.6825 F80.00
G01 X18.2250 Y35.6604 F80.00
G01 X18.2772 Y35.6404 F80.00
G01 X18.3296 Y35.6231 F80.00
G01 X18.3828 Y35.6084 F80.00
G01 X18.4355 Y35.5966 F80.00
G01 X18.4887 Y35.5874 F80.00
G01 X18.5435 Y35.5806 F80.00
G01 X18.5986 Y35.5764 F80.00
G01 X18.6538 Y35.5750 F80.00
G01 X20.5050 Y35.5750 F80.00
G01 X20.5590 Y35.5763 F80.00
G01 X20.6165 Y35.5806 F80.00
G01 X20.6713 Y35.5874 F80.00
G01 X20.7245 Y35.5966 F80.00
G01 X20.7772 Y35.6084 F80.00
G01 X20.8304 Y35.6231 F80.00
G01 X20.8852 Y35.6412 F80.00
G01 X20.9350 Y35.6604 F80.00
G01 X20.9849 Y35.6825 F80.00
G01 X21.0364 Y35.7084 F80.00
G01 X21.0842 Y35.7356 F80.00
G01 X21.1290 Y35.7639 F80.00
G01 X21.1754 Y35.7966 F80.00
G01 X21.2177 Y35.8296 F80.00
G01 X21.2614 Y35.8673 F80.00
G01 X21.3005 Y35.9045 F80.00
G01 X21.3377 Y35.9436 F80.00
G01 X21.3754 Y35.9873 F80.00
G01 X21.4084 Y36.0296 F80.00
G01 X21.4397 Y36.0740 F80.00
G01 X21.4706 Y36.1227 F80.00
G01 X21.4977 Y36.1708 F80.00
G01 X21.5215 Y36.2180 F80.00
G01 X21.5448 Y36.2706 F80.00
G01 X21.5638 Y36.3198 F80.00
G01 X21.5812 Y36.3723 F80.00
G01 X21.5966 Y36.4278 F80.00
G01 X21.6084 Y36.4805 F80.00
G01 X21.6176 Y36.5337 F80.00
G01 X21.6247 Y36.5910 F80.00
G01 X21.6286 Y36.6436 F80.00
G01 X21.6300 Y36.6988 F80.00
G01 X21.6287 Y36.7540 F80.00
G01 X21.6245 Y36.8112 F80.00
G01 X21.6176 Y36.8663 F80.00
G01 X21.6084 Y36.9195 F80.00
G01 X21.5966 Y36.9722 F80.00
G01 X21.5819 Y37.0254 F80.00
G01 X21.5646 Y37.0778 F80.00
G01 X21.5446 Y37.1300 F80.00
G01 X21.5215 Y37.1820 F80.00
G01 X21.4977 Y37.2292 F80.00
G01 X21.4694 Y37.2792 F80.00
G01 X21.4411 Y37.3240 F80.00
G01 X21.4084 Y37.3704 F80.00
G01 X21.3740 Y37.4144 F80.00
G01 X21.3377 Y37.4564 F80.00
G01 X21.3005 Y37.4955 F80.00
G01 X21.2596 Y37.5344 F80.00
G01 X21.2177 Y37.5704 F80.00
G01 X21.1754 Y37.6034 F80.00
G01 X21.1290 Y37.6361 F80.00
G01 X21.0823 Y37.6656 F80.00
G01 X21.0342 Y37.6927 F80.00
G01 X20.9870 Y37.7165 F80.00
G01 X20.9350 Y37.7396 F80.00
G01 X20.8828 Y37.7596 F80.00
G01 X20.8304 Y37.7769 F80.00
G01 X20.7772 Y37.7916 F80.00
G01 X20.7245 Y37.8034 F80.00
G01 X20.6713 Y37.8126 F80.00
G01 X20.6165 Y37.8194 F80.00
G01 X20.5614 Y37.8236 F80.00
G01 X20.5062 Y37.8250 F80.00
G01 X18.6550 Y37.8250 F80.00
G01 X18.6010 Y37.8237 F80.00
G01 X18.5435 Y37.8194 F80.00
G01 X18.4887 Y37.8126 F80.00
G01 X18.4355 Y37.8034 F80.00
G01 X18.3828 Y37.7916 F80.00
G01 X18.3296 Y37.7769 F80.00
G01 X18.2748 Y37.7588 F80.00
G01 X18.2250 Y37.7396 F80.00
G01 X18.1751 Y37.7175 F80.00
G01 X18.1236 Y37.6916 F80.00
G01 X18.0758 Y37.6644 F80.00
G01 X18.0310 Y37.6361 F80.00
G01 X17.9846 Y37.6034 F80.00
G01 X17.9406 Y37.5690 F80.00
G01 X17.9004 Y37.5344 F80.00
G01 X17.8595 Y37.4955 F80.00
G01 X17.8206 Y37.4546 F80.00
G01 X17.7846 Y37.4127 F80.00
G01 X17.7516 Y37.3704 F80.00
G01 X17.7203 Y37.3260 F80.00
G01 X17.6907 Y37.2794 F80.00
G01 X17.6623 Y37.2292 F80.00
G01 X17.6385 Y37.1820 F80.00
G01 X17.6161 Y37.1316 F80.00
G01 X17.5954 Y37.0778 F80.00
G01 X17.5788 Y37.0277 F80.00
G01 X17.5640 Y36.9745 F80.00
G01 X17.5516 Y36.9195 F80.00
G01 X17.5424 Y36.8663 F80.00
G01 X17.5356 Y36.8115 F80.00
G01 X17.5313 Y36.7540 F80.00
G00 Z1.9990
G00 X17.5313 Y39.2940
G01 F80.00
G01 Z-0.1493
G01 F80.00
G01 X17.5300 Y39.2400 F80.00
G01 X17.5314 Y39.1836 F80.00
G01 X17.5355 Y39.1288 F80.00
G01 X17.5424 Y39.0737 F80.00
G01 X17.5516 Y39.0205 F80.00
G01 X17.5640 Y38.9655 F80.00
G01 X17.5788 Y38.9123 F80.00
G01 X17.5962 Y38.8598 F80.00
G01 X17.6154 Y38.8100 F80.00
G01 X17.6385 Y38.7580 F80.00
G01 X17.6634 Y38.7086 F80.00
G01 X17.6906 Y38.6608 F80.00
G01 X17.7203 Y38.6140 F80.00
G01 X17.7516 Y38.5696 F80.00
G01 X17.7860 Y38.5256 F80.00
G01 X17.8223 Y38.4836 F80.00
G01 X17.8595 Y38.4445 F80.00
G01 X17.9004 Y38.4056 F80.00
G01 X17.9423 Y38.3696 F80.00
G01 X17.9846 Y38.3366 F80.00
G01 X18.0310 Y38.3039 F80.00
G01 X18.0777 Y38.2744 F80.00
G01 X18.1258 Y38.2473 F80.00
G01 X18.1751 Y38.2225 F80.00
G01 X18.2250 Y38.2004 F80.00
G01 X18.2772 Y38.1804 F80.00
G01 X18.3296 Y38.1631 F80.00
G01 X18.3828 Y38.1484 F80.00
G01 X18.4355 Y38.1366 F80.00
G01 X18.4887 Y38.1274 F80.00
G01 X18.5435 Y38.1206 F80.00
G01 X18.5986 Y38.1164 F80.00
G01 X18.6538 Y38.1150 F80.00
G01 X20.5050 Y38.1150 F80.00
G01 X20.5590 Y38.1163 F80.00
G01 X20.6165 Y38.1206 F80.00
G01 X20.6713 Y38.1274 F80.00
G01 X20.7245 Y38.1366 F80.00
G01 X20.7772 Y38.1484 F80.00
G01 X20.8304 Y38.1631 F80.00
G01 X20.8852 Y38.1812 F80.00
G01 X20.9350 Y38.2004 F80.00
G01 X20.9849 Y38.2225 F80.00
G01 X21.0364 Y38.2484 F80.00
G01 X21.0842 Y38.2756 F80.00
G01 X21.1290 Y38.3039 F80.00
G01 X21.1754 Y38.3366 F80.00
G01 X21.2177 Y38.3696 F80.00
G01 X21.2614 Y38.4073 F80.00
G01 X21.3005 Y38.4445 F80.00
G01 X21.3377 Y38.4836 F80.00
G01 X21.3754 Y38.5273 F80.00
G01 X21.4084 Y38.5696 F80.00
G01 X21.4397 Y38.6140 F80.00
G01 X21.4706 Y38.6627 F80.00
G01 X21.4977 Y38.7108 F80.00
G01 X21.5215 Y38.7580 F80.00
G01 X21.5448 Y38.8106 F80.00
G01 X21.5638 Y38.8598 F80.00
G01 X21.5812 Y38.9123 F80.00
G01 X21.5966 Y38.9678 F80.00
G01 X21.6084 Y39.0205 F80.00
G01 X21.6176 Y39.0737 F80.00
G01 X21.6247 Y39.1310 F80.00
G01 X21.6286 Y39.1836 F80.00
G01 X21.6300 Y39.2388 F80.00
G01 X21.6287 Y39.2940 F80.00
G01 X21.6245 Y39.3512 F80.00
G01 X21.6176 Y39.4063 F80.00
G01 X21.6084 Y39.4595 F80.00
G01 X21.5966 Y39.5122 F80.00
G01 X21.5819 Y39.5654 F80.00
G01 X21.5646 Y39.6178 F80.00
G01 X21.5446 Y39.6700 F80.00
G01 X21.5215 Y39.7220 F80.00
G01 X21.4977 Y39.7692 F80.00
G01 X21.4694 Y39.8192 F80.00
G01 X21.4411 Y39.8640 F80.00
G01 X21.4084 Y39.9104 F80.00
G01 X21.3740 Y39.9544 F80.00
G01 X21.3377 Y39.9964 F80.00
G01 X21.3005 Y40.0355 F80.00
G01 X21.2596 Y40.0744 F80.00
G01 X21.2177 Y40.1104 F80.00
G01 X21.1754 Y40.1434 F80.00
G01 X21.1290 Y40.1761 F80.00
G01 X21.0823 Y40.2056 F80.00
G01 X21.0342 Y40.2327 F80.00
G01 X20.9870 Y40.2565 F80.00
G01 X20.9350 Y40.2796 F80.00
G01 X20.8828 Y40.2996 F80.00
G01 X20.8304 Y40.3169 F80.00
G01 X20.7772 Y40.3316 F80.00
G01 X20.7245 Y40.3434 F80.00
G01 X20.6713 Y40.3526 F80.00
G01 X20.6165 Y40.3594 F80.00
G01 X20.5614 Y40.3636 F80.00
G01 X20.5062 Y40.3650 F80.00
G01 X18.6550 Y40.3650 F80.00
G01 X18.6010 Y40.3637 F80.00
G01 X18.5435 Y40.3594 F80.00
G01 X18.4887 Y40.3526 F80.00
G01 X18.4355 Y40.3434 F80.00
G01 X18.3828 Y40.3316 F80.00
G01 X18.3296 Y40.3169 F80.00
G01 X18.2748 Y40.2988 F80.00
G01 X18.2250 Y40.2796 F80.00
G01 X18.1751 Y40.2575 F80.00
G01 X18.1236 Y40.2316 F80.00
G01 X18.0758 Y40.2044 F80.00
G01 X18.0310 Y40.1761 F80.00
G01 X17.9846 Y40.1434 F80.00
G01 X17.9406 Y40.1090 F80.00
G01 X17.9004 Y40.0744 F80.00
G01 X17.8595 Y40.0355 F80.00
G01 X17.8206 Y39.9946 F80.00
G01 X17.7846 Y39.9527 F80.00
G01 X17.7516 Y39.9104 F80.00
G01 X17.7203 Y39.8660 F80.00
G01 X17.6907 Y39.8194 F80.00
G01 X17.6623 Y39.7692 F80.00
G01 X17.6385 Y39.7220 F80.00
G01 X17.6161 Y39.6716 F80.00
G01 X17.5954 Y39.6178 F80.00
G01 X17.5788 Y39.5677 F80.00
G01 X17.5640 Y39.5145 F80.00
G01 X17.5516 Y39.4595 F80.00
G01 X17.5424 Y39.4063 F80.00
G01 X17.5356 Y39.3515 F80.00
G01 X17.5313 Y39.2940 F80.00
G00 Z1.9990
G00 X17.5313 Y41.8340
G01 F80.00
G01 Z-0.1493
G01 F80.00
G01 X17.5300 Y41.7800 F80.00
G01 X17.5314 Y41.7236 F80.00
G01 X17.5355 Y41.6688 F80.00
G01 X17.5424 Y41.6137 F80.00
G01 X17.5516 Y41.5605 F80.00
G01 X17.5640 Y41.5055 F80.00
G01 X17.5788 Y41.4523 F80.00
G01 X17.5962 Y41.3998 F80.00
G01 X17.6154 Y41.3500 F80.00
G01 X17.6385 Y41.2980 F80.00
G01 X17.6634 Y41.2486 F80.00
G01 X17.6906 Y41.2008 F80.00
G01 X17.7203 Y41.1540 F80.00
G01 X17.7516 Y41.1096 F80.00
G01 X17.7860 Y41.0656 F80.00
G01 X17.8223 Y41.0236 F80.00
G01 X17.8595 Y40.9845 F80.00
G01 X17.9004 Y40.9456 F80.00
G01 X17.9423 Y40.9096 F80.00
G01 X17.9846 Y40.8766 F80.00
G01 X18.0310 Y40.8439 F80.00
G01 X18.0777 Y40.8144 F80.00
G01 X18.1258 Y40.7873 F80.00
G01 X18.1751 Y40.7625 F80.00
G01 X18.2250 Y40.7404 F80.00
G01 X18.2772 Y40.7204 F80.00
G01 X18.3296 Y40.7031 F80.00
G01 X18.3828 Y40.6884 F80.00
G01 X18.4355 Y40.6766 F80.00
G01 X18.4887 Y40.6674 F80.00
G01 X18.5435 Y40.6606 F80.00
G01 X18.5986 Y40.6564 F80.00
G01 X18.6538 Y40.6550 F80.00
G01 X20.5050 Y40.6550 F80.00
G01 X20.5590 Y40.6563 F80.00
G01 X20.6165 Y40.6606 F80.00
G01 X20.6713 Y40.6674 F80.00
G01 X20.7245 Y40.6766 F80.00
G01 X20.7772 Y40.6884 F80.00
G01 X20.8304 Y40.7031 F80.00
G01 X20.8852 Y40.7212 F80.00
G01 X20.9350 Y40.7404 F80.00
G01 X20.9849 Y40.7625 F80.00
G01 X21.0364 Y40.7884 F80.00
G01 X21.0842 Y40.8156 F80.00
G01 X21.1290 Y40.8439 F80.00
G01 X21.1754 Y40.8766 F80.00
G01 X21.2177 Y40.9096 F80.00
G01 X21.2614 Y40.9473 F80.00
G01 X21.3005 Y40.9845 F80.00
G01 X21.3377 Y41.0236 F80.00
G01 X21.3754 Y41.0673 F80.00
G01 X21.4084 Y41.1096 F80.00
G01 X21.4397 Y41.1540 F80.00
G01 X21.4706 Y41.2027 F80.00
G01 X21.4977 Y41.2508 F80.00
G01 X21.5215 Y41.2980 F80.00
G01 X21.5448 Y41.3506 F80.00
G01 X21.5638 Y41.3998 F80.00
G01 X21.5812 Y41.4523 F80.00
G01 X21.5966 Y41.5078 F80.00
G01 X21.6084 Y41.5605 F80.00
G01 X21.6176 Y41.6137 F80.00
G01 X21.6247 Y41.6710 F80.00
G01 X21.6286 Y41.7236 F80.00
G01 X21.6300 Y41.7788 F80.00
G01 X21.6287 Y41.8340 F80.00
G01 X21.6245 Y41.8912 F80.00
G01 X21.6176 Y41.9463 F80.00
G01 X21.6084 Y41.9995 F80.00
G01 X21.5966 Y42.0522 F80.00
G01 X21.5819 Y42.1054 F80.00
G01 X21.5646 Y42.1578 F80.00
G01 X21.5446 Y42.2100 F80.00
G01 X21.5215 Y42.2620 F80.00
G01 X21.4977 Y42.3092 F80.00
G01 X21.4694 Y42.3592 F80.00
G01 X21.4411 Y42.4040 F80.00
G01 X21.4084 Y42.4504 F80.00
G01 X21.3740 Y42.4944 F80.00
G01 X21.3377 Y42.5364 F80.00
G01 X21.3005 Y42.5755 F80.00
G01 X21.2596 Y42.6144 F80.00
G01 X21.2177 Y42.6504 F80.00
G01 X21.1754 Y42.6834 F80.00
G01 X21.1290 Y42.7161 F80.00
G01 X21.0823 Y42.7456 F80.00
G01 X21.0342 Y42.7727 F80.00
G01 X20.9870 Y42.7965 F80.00
G01 X20.9350 Y42.8196 F80.00
G01 X20.8828 Y42.8396 F80.00
G01 X20.8304 Y42.8569 F80.00
G01 X20.7772 Y42.8716 F80.00
G01 X20.7245 Y42.8834 F80.00
G01 X20.6713 Y42.8926 F80.00
G01 X20.6165 Y42.8994 F80.00
G01 X20.5614 Y42.9036 F80.00
G01 X20.5062 Y42.9050 F80.00
G01 X18.6550 Y42.9050 F80.00
G01 X18.6010 Y42.9037 F80.00
G01 X18.5435 Y42.8994 F80.00
G01 X18.4887 Y42.8926 F80.00
G01 X18.4355 Y42.8834 F80.00
G01 X18.3828 Y42.8716 F80.00
G01 X18.3296 Y42.8569 F80.00
G01 X18.2748 Y42.8388 F80.00
G01 X18.2250 Y42.8196 F80.00
G01 X18.1751 Y42.7975 F80.00
G01 X18.1236 Y42.7716 F80.00
G01 X18.0758 Y42.7444 F80.00
G01 X18.0310 Y42.7161 F80.00
G01 X17.9846 Y42.6834 F80.00
G01 X17.9406 Y42.6490 F80.00
G01 X17.9004 Y42.6144 F80.00
G01 X17.8595 Y42.5755 F80.00
G01 X17.8206 Y42.5346 F80.00
G01 X17.7846 Y42.4927 F80.00
G01 X17.7516 Y42.4504 F80.00
G01 X17.7203 Y42.4060 F80.00
G01 X17.6907 Y42.3594 F80.00
G01 X17.6623 Y42.3092 F80.00
G01 X17.6385 Y42.2620 F80.00
G01 X17.6161 Y42.2116 F80.00
G01 X17.5954 Y42.1578 F80.00
G01 X17.5788 Y42.1077 F80.00
G01 X17.5640 Y42.0545 F80.00
G01 X17.5516 Y41.9995 F80.00
G01 X17.5424 Y41.9463 F80.00
G01 X17.5356 Y41.8915 F80.00
G01 X17.5313 Y41.8340 F80.00
G00 Z1.9990
G00 X17.5313 Y44.3740
G01 F80.00
G01 Z-0.1493
G01 F80.00
G01 X17.5300 Y44.3200 F80.00
G01 X17.5314 Y44.2636 F80.00
G01 X17.5355 Y44.2088 F80.00
G01 X17.5424 Y44.1537 F80.00
G01 X17.5516 Y44.1005 F80.00
G01 X17.5640 Y44.0455 F80.00
G01 X17.5788 Y43.9923 F80.00
G01 X17.5962 Y43.9398 F80.00
G01 X17.6154 Y43.8900 F80.00
G01 X17.6385 Y43.8380 F80.00
G01 X17.6634 Y43.7886 F80.00
G01 X17.6906 Y43.7408 F80.00
G01 X17.7203 Y43.6940 F80.00
G01 X17.7516 Y43.6496 F80.00
G01 X17.7860 Y43.6056 F80.00
G01 X17.8223 Y43.5636 F80.00
G01 X17.8595 Y43.5245 F80.00
G01 X17.9004 Y43.4856 F80.00
G01 X17.9423 Y43.4496 F80.00
G01 X17.9846 Y43.4166 F80.00
G01 X18.0310 Y43.3839 F80.00
G01 X18.0777 Y43.3544 F80.00
G01 X18.1258 Y43.3273 F80.00
G01 X18.1751 Y43.3025 F80.00
G01 X18.2250 Y43.2804 F80.00
G01 X18.2772 Y43.2604 F80.00
G01 X18.3296 Y43.2431 F80.00
G01 X18.3828 Y43.2284 F80.00
G01 X18.4355 Y43.2166 F80.00
G01 X18.4887 Y43.2074 F80.00
G01 X18.5435 Y43.2006 F80.00
G01 X18.5986 Y43.1964 F80.00
G01 X18.6538 Y43.1950 F80.00
G01 X20.5050 Y43.1950 F80.00
G01 X20.5590 Y43.1963 F80.00
G01 X20.6165 Y43.2006 F80.00
G01 X20.6713 Y43.2074 F80.00
G01 X20.7245 Y43.2166 F80.00
G01 X20.7772 Y43.2284 F80.00
G01 X20.8304 Y43.2431 F80.00
G01 X20.8852 Y43.2612 F80.00
G01 X20.9350 Y43.2804 F80.00
G01 X20.9849 Y43.3025 F80.00
G01 X21.0364 Y43.3284 F80.00
G01 X21.0842 Y43.3556 F80.00
G01 X21.1290 Y43.3839 F80.00
G01 X21.1754 Y43.4166 F80.00
G01 X21.2177 Y43.4496 F80.00
G01 X21.2614 Y43.4873 F80.00
G01 X21.3005 Y43.5245 F80.00
G01 X21.3377 Y43.5636 F80.00
G01 X21.3754 Y43.6073 F80.00
G01 X21.4084 Y43.6496 F80.00
G01 X21.4397 Y43.6940 F80.00
G01 X21.4706 Y43.7427 F80.00
G01 X21.4977 Y43.7908 F80.00
G01 X21.5215 Y43.8380 F80.00
G01 X21.5448 Y43.8906 F80.00
G01 X21.5638 Y43.9398 F80.00
G01 X21.5812 Y43.9923 F80.00
G01 X21.5966 Y44.0478 F80.00
G01 X21.6084 Y44.1005 F80.00
G01 X21.6176 Y44.1537 F80.00
G01 X21.6247 Y44.2110 F80.00
G01 X21.6286 Y44.2636 F80.00
G01 X21.6300 Y44.3188 F80.00
G01 X21.6287 Y44.3740 F80.00
G01 X21.6245 Y44.4312 F80.00
G01 X21.6176 Y44.4863 F80.00
G01 X21.6084 Y44.5395 F80.00
G01 X21.5966 Y44.5922 F80.00
G01 X21.5819 Y44.6454 F80.00
G01 X21.5646 Y44.6978 F80.00
G01 X21.5446 Y44.7500 F80.00
G01 X21.5215 Y44.8020 F80.00
G01 X21.4977 Y44.8492 F80.00
G01 X21.4694 Y44.8992 F80.00
G01 X21.4411 Y44.9440 F80.00
G01 X21.4084 Y44.9904 F80.00
G01 X21.3740 Y45.0344 F80.00
G01 X21.3377 Y45.0764 F80.00
G01 X21.3005 Y45.1155 F80.00
G01 X21.2596 Y45.1544 F80.00
G01 X21.2177 Y45.1904 F80.00
G01 X21.1754 Y45.2234 F80.00
G01 X21.1290 Y45.2561 F80.00
G01 X21.0823 Y45.2856 F80.00
G01 X21.0342 Y45.3127 F80.00
G01 X20.9870 Y45.3365 F80.00
G01 X20.9350 Y45.3596 F80.00
G01 X20.8828 Y45.3796 F80.00
G01 X20.8304 Y45.3969 F80.00
G01 X20.7772 Y45.4116 F80.00
G01 X20.7245 Y45.4234 F80.00
G01 X20.6713 Y45.4326 F80.00
G01 X20.6165 Y45.4394 F80.00
G01 X20.5614 Y45.4436 F80.00
G01 X20.5062 Y45.4450 F80.00
G01 X18.6550 Y45.4450 F80.00
G01 X18.6010 Y45.4437 F80.00
G01 X18.5435 Y45.4394 F80.00
G01 X18.4887 Y45.4326 F80.00
G01 X18.4355 Y45.4234 F80.00
G01 X18.3828 Y45.4116 F80.00
G01 X18.3296 Y45.3969 F80.00
G01 X18.2748 Y45.3788 F80.00
G01 X18.2250 Y45.3596 F80.00
G01 X18.1751 Y45.3375 F80.00
G01 X18.1236 Y45.3116 F80.00
G01 X18.0758 Y45.2844 F80.00
G01 X18.0310 Y45.2561 F80.00
G01 X17.9846 Y45.2234 F80.00
G01 X17.9406 Y45.1890 F80.00
G01 X17.9004 Y45.1544 F80.00
G01 X17.8595 Y45.1155 F80.00
G01 X17.8206 Y45.0746 F80.00
G01 X17.7846 Y45.0327 F80.00
G01 X17.7516 Y44.9904 F80.00
G01 X17.7203 Y44.9460 F80.00
G01 X17.6907 Y44.8994 F80.00
G01 X17.6623 Y44.8492 F80.00
G01 X17.6385 Y44.8020 F80.00
G01 X17.6161 Y44.7516 F80.00
G01 X17.5954 Y44.6978 F80.00
G01 X17.5788 Y44.6477 F80.00
G01 X17.5640 Y44.5945 F80.00
G01 X17.5516 Y44.5395 F80.00
G01 X17.5424 Y44.4863 F80.00
G01 X17.5356 Y44.4315 F80.00
G01 X17.5313 Y44.3740 F80.00
G00 Z1.9990
G00 X17.5313 Y46.9140
G01 F80.00
G01 Z-0.1493
G01 F80.00
G01 X17.5300 Y46.8600 F80.00
G01 X17.5314 Y46.8036 F80.00
G01 X17.5355 Y46.7488 F80.00
G01 X17.5424 Y46.6937 F80.00
G01 X17.5516 Y46.6405 F80.00
G01 X17.5640 Y46.5855 F80.00
G01 X17.5788 Y46.5323 F80.00
G01 X17.5962 Y46.4798 F80.00
G01 X17.6154 Y46.4300 F80.00
G01 X17.6385 Y46.3780 F80.00
G01 X17.6634 Y46.3286 F80.00
G01 X17.6906 Y46.2808 F80.00
G01 X17.7203 Y46.2340 F80.00
G01 X17.7516 Y46.1896 F80.00
G01 X17.7860 Y46.1456 F80.00
G01 X17.8223 Y46.1036 F80.00
G01 X17.8595 Y46.0645 F80.00
G01 X17.9004 Y46.0256 F80.00
G01 X17.9423 Y45.9896 F80.00
G01 X17.9846 Y45.9566 F80.00
G01 X18.0310 Y45.9239 F80.00
G01 X18.0777 Y45.8944 F80.00
G01 X18.1258 Y45.8673 F80.00
G01 X18.1751 Y45.8425 F80.00
G01 X18.2250 Y45.8204 F80.00
G01 X18.2772 Y45.8004 F80.00
G01 X18.3296 Y45.7831 F80.00
G01 X18.3828 Y45.7684 F80.00
G01 X18.4355 Y45.7566 F80.00
G01 X18.4887 Y45.7474 F80.00
G01 X18.5435 Y45.7406 F80.00
G01 X18.5986 Y45.7364 F80.00
G01 X18.6538 Y45.7350 F80.00
G01 X20.5050 Y45.7350 F80.00
G01 X20.5590 Y45.7363 F80.00
G01 X20.6165 Y45.7406 F80.00
G01 X20.6713 Y45.7474 F80.00
G01 X20.7245 Y45.7566 F80.00
G01 X20.7772 Y45.7684 F80.00
G01 X20.8304 Y45.7831 F80.00
G01 X20.8852 Y45.8012 F80.00
G01 X20.9350 Y45.8204 F80.00
G01 X20.9849 Y45.8425 F80.00
G01 X21.0364 Y45.8684 F80.00
G01 X21.0842 Y45.8956 F80.00
G01 X21.1290 Y45.9239 F80.00
G01 X21.1754 Y45.9566 F80.00
G01 X21.2177 Y45.9896 F80.00
G01 X21.2614 Y46.0273 F80.00
G01 X21.3005 Y46.0645 F80.00
G01 X21.3377 Y46.1036 F80.00
G01 X21.3754 Y46.1473 F80.00
G01 X21.4084 Y46.1896 F80.00
G01 X21.4397 Y46.2340 F80.00
G01 X21.4706 Y46.2827 F80.00
G01 X21.4977 Y46.3308 F80.00
G01 X21.5215 Y46.3780 F80.00
G01 X21.5448 Y46.4306 F80.00
G01 X21.5638 Y46.4798 F80.00
G01 X21.5812 Y46.5323 F80.00
G01 X21.5966 Y46.5878 F80.00
G01 X21.6084 Y46.6405 F80.00
G01 X21.6176 Y46.6937 F80.00
G01 X21.6247 Y46.7510 F80.00
G01 X21.6286 Y46.8036 F80.00
G01 X21.6300 Y46.8588 F80.00
G01 X21.6287 Y46.9140 F80.00
G01 X21.6245 Y46.9712 F80.00
G01 X21.6176 Y47.0263 F80.00
G01 X21.6084 Y47.0795 F80.00
G01 X21.5966 Y47.1322 F80.00
G01 X21.5819 Y47.1854 F80.00
G01 X21.5646 Y47.2378 F80.00
G01 X21.5446 Y47.2900 F80.00
G01 X21.5215 Y47.3420 F80.00
G01 X21.4977 Y47.3892 F80.00
G01 X21.4694 Y47.4392 F80.00
G01 X21.4411 Y47.4840 F80.00
G01 X21.4084 Y47.5304 F80.00
G01 X21.3740 Y47.5744 F80.00
G01 X21.3377 Y47.6164 F80.00
G01 X21.3005 Y47.6555 F80.00
G01 X21.2596 Y47.6944 F80.00
G01 X21.2177 Y47.7304 F80.00
G01 X21.1754 Y47.7634 F80.00
G01 X21.1290 Y47.7961 F80.00
G01 X21.0823 Y47.8256 F80.00
G01 X21.0342 Y47.8527 F80.00
G01 X20.9870 Y47.8765 F80.00
G01 X20.9350 Y47.8996 F80.00
G01 X20.8828 Y47.9196 F80.00
G01 X20.8304 Y47.9369 F80.00
G01 X20.7772 Y47.9516 F80.00
G01 X20.7245 Y47.9634 F80.00
G01 X20.6713 Y47.9726 F80.00
G01 X20.6165 Y47.9794 F80.00
G01 X20.5614 Y47.9836 F80.00
G01 X20.5062 Y47.9850 F80.00
G01 X18.6550 Y47.9850 F80.00
G01 X18.6010 Y47.9837 F80.00
G01 X18.5435 Y47.9794 F80.00
G01 X18.4887 Y47.9726 F80.00
G01 X18.4355 Y47.9634 F80.00
G01 X18.3828 Y47.9516 F80.00
G01 X18.3296 Y47.9369 F80.00
G01 X18.2748 Y47.9188 F80.00
G01 X18.2250 Y47.8996 F80.00
G01 X18.1751 Y47.8775 F80.00
G01 X18.1236 Y47.8516 F80.00
G01 X18.0758 Y47.8244 F80.00
G01 X18.0310 Y47.7961 F80.00
G01 X17.9846 Y47.7634 F80.00
G01 X17.9406 Y47.7290 F80.00
G01 X17.9004 Y47.6944 F80.00
G01 X17.8595 Y47.6555 F80.00
G01 X17.8206 Y47.6146 F80.00
G01 X17.7846 Y47.5727 F80.00
G01 X17.7516 Y47.5304 F80.00
G01 X17.7203 Y47.4860 F80.00
G01 X17.6907 Y47.4394 F80.00
G01 X17.6623 Y47.3892 F80.00
G01 X17.6385 Y47.3420 F80.00
G01 X17.6161 Y47.2916 F80.00
G01 X17.5954 Y47.2378 F80.00
G01 X17.5788 Y47.1877 F80.00
G01 X17.5640 Y47.1345 F80.00
G01 X17.5516 Y47.0795 F80.00
G01 X17.5424 Y47.0263 F80.00
G01 X17.5356 Y46.9715 F80.00
G01 X17.5313 Y46.9140 F80.00
G00 Z1.9990
G00 X42.9313 Y46.9140
G01 F80.00
G01 Z-0.1493
G01 F80.00
G01 X42.9300 Y46.8600 F80.00
G01 X42.9314 Y46.8036 F80.00
G01 X42.9355 Y46.7488 F80.00
G01 X42.9424 Y46.6937 F80.00
G01 X42.9516 Y46.6405 F80.00
G01 X42.9640 Y46.5855 F80.00
G01 X42.9788 Y46.5323 F80.00
G01 X42.9962 Y46.4798 F80.00
G01 X43.0154 Y46.4300 F80.00
G01 X43.0385 Y46.3780 F80.00
G01 X43.0634 Y46.3286 F80.00
G01 X43.0906 Y46.2808 F80.00
G01 X43.1203 Y46.2340 F80.00
G01 X43.1516 Y46.1896 F80.00
G01 X43.1860 Y46.1456 F80.00
G01 X43.2223 Y46.1036 F80.00
G01 X43.2595 Y46.0645 F80.00
G01 X43.3004 Y46.0256 F80.00
G01 X43.3423 Y45.9896 F80.00
G01 X43.3846 Y45.9566 F80.00
G01 X43.4310 Y45.9239 F80.00
G01 X43.4777 Y45.8944 F80.00
G01 X43.5258 Y45.8673 F80.00
G01 X43.5751 Y45.8425 F80.00
G01 X43.6250 Y45.8204 F80.00
G01 X43.6772 Y45.8004 F80.00
G01 X43.7296 Y45.7831 F80.00
G01 X43.7828 Y45.7684 F80.00
G01 X43.8355 Y45.7566 F80.00
G01 X43.8887 Y45.7474 F80.00
G01 X43.9435 Y45.7406 F80.00
G01 X43.9986 Y45.7364 F80.00
G01 X44.0538 Y45.7350 F80.00
G01 X45.9050 Y45.7350 F80.00
G01 X45.9590 Y45.7363 F80.00
G01 X46.0165 Y45.7406 F80.00
G01 X46.0713 Y45.7474 F80.00
G01 X46.1245 Y45.7566 F80.00
G01 X46.1772 Y45.7684 F80.00
G01 X46.2304 Y45.7831 F80.00
G01 X46.2852 Y45.8012 F80.00
G01 X46.3350 Y45.8204 F80.00
G01 X46.3849 Y45.8425 F80.00
G01 X46.4364 Y45.8684 F80.00
G01 X46.4842 Y45.8956 F80.00
G01 X46.5290 Y45.9239 F80.00
G01 X46.5754 Y45.9566 F80.00
G01 X46.6177 Y45.9896 F80.00
G01 X46.6614 Y46.0273 F80.00
G01 X46.7005 Y46.0645 F80.00
G01 X46.7377 Y46.1036 F80.00
G01 X46.7754 Y46.1473 F80.00
G01 X46.8084 Y46.1896 F80.00
G01 X46.8397 Y46.2340 F80.00
G01 X46.8706 Y46.2827 F80.00
G01 X46.8977 Y46.3308 F80.00
G01 X46.9215 Y46.3780 F80.00
G01 X46.9448 Y46.4306 F80.00
G01 X46.9638 Y46.4798 F80.00
G01 X46.9812 Y46.5323 F80.00
G01 X46.9966 Y46.5878 F80.00
G01 X47.0084 Y46.6405 F80.00
G01 X47.0176 Y46.6937 F80.00
G01 X47.0247 Y46.7510 F80.00
G01 X47.0286 Y46.8036 F80.00
G01 X47.0300 Y46.8588 F80.00
G01 X47.0287 Y46.9140 F80.00
G01 X47.0245 Y46.9712 F80.00
G01 X47.0176 Y47.0263 F80.00
G01 X47.0084 Y47.0795 F80.00
G01 X46.9966 Y47.1322 F80.00
G01 X46.9819 Y47.1854 F80.00
G01 X46.9646 Y47.2378 F80.00
G01 X46.9446 Y47.2900 F80.00
G01 X46.9215 Y47.3420 F80.00
G01 X46.8977 Y47.3892 F80.00
G01 X46.8694 Y47.4392 F80.00
G01 X46.8411 Y47.4840 F80.00
G01 X46.8084 Y47.5304 F80.00
G01 X46.7740 Y47.5744 F80.00
G01 X46.7377 Y47.6164 F80.00
G01 X46.7005 Y47.6555 F80.00
G01 X46.6596 Y47.6944 F80.00
G01 X46.6177 Y47.7304 F80.00
G01 X46.5754 Y47.7634 F80.00
G01 X46.5290 Y47.7961 F80.00
G01 X46.4823 Y47.8256 F80.00
G01 X46.4342 Y47.8527 F80.00
G01 X46.3870 Y47.8765 F80.00
G01 X46.3350 Y47.8996 F80.00
G01 X46.2828 Y47.9196 F80.00
G01 X46.2304 Y47.9369 F80.00
G01 X46.1772 Y47.9516 F80.00
G01 X46.1245 Y47.9634 F80.00
G01 X46.0713 Y47.9726 F80.00
G01 X46.0165 Y47.9794 F80.00
G01 X45.9614 Y47.9836 F80.00
G01 X45.9062 Y47.9850 F80.00
G01 X44.0550 Y47.9850 F80.00
G01 X44.0010 Y47.9837 F80.00
G01 X43.9435 Y47.9794 F80.00
G01 X43.8887 Y47.9726 F80.00
G01 X43.8355 Y47.9634 F80.00
G01 X43.7828 Y47.9516 F80.00
G01 X43.7296 Y47.9369 F80.00
G01 X43.6748 Y47.9188 F80.00
G01 X43.6250 Y47.8996 F80.00
G01 X43.5751 Y47.8775 F80.00
G01 X43.5236 Y47.8516 F80.00
G01 X43.4758 Y47.8244 F80.00
G01 X43.4310 Y47.7961 F80.00
G01 X43.3846 Y47.7634 F80.00
G01 X43.3406 Y47.7290 F80.00
G01 X43.3004 Y47.6944 F80.00
G01 X43.2595 Y47.6555 F80.00
G01 X43.2206 Y47.6146 F80.00
G01 X43.1846 Y47.5727 F80.00
G01 X43.1516 Y47.5304 F80.00
G01 X43.1203 Y47.4860 F80.00
G01 X43.0907 Y47.4394 F80.00
G01 X43.0623 Y47.3892 F80.00
G01 X43.0385 Y47.3420 F80.00
G01 X43.0161 Y47.2916 F80.00
G01 X42.9954 Y47.2378 F80.00
G01 X42.9788 Y47.1877 F80.00
G01 X42.9640 Y47.1345 F80.00
G01 X42.9516 Y47.0795 F80.00
G01 X42.9424 Y47.0263 F80.00
G01 X42.9356 Y46.9715 F80.00
G01 X42.9313 Y46.9140 F80.00
G00 Z1.9990
G00 X42.9313 Y44.3740
G01 F80.00
G01 Z-0.1493
G01 F80.00
G01 X42.9300 Y44.3200 F80.00
G01 X42.9314 Y44.2636 F80.00
G01 X42.9355 Y44.2088 F80.00
G01 X42.9424 Y44.1537 F80.00
G01 X42.9516 Y44.1005 F80.00
G01 X42.9640 Y44.0455 F80.00
G01 X42.9788 Y43.9923 F80.00
G01 X42.9962 Y43.9398 F80.00
G01 X43.0154 Y43.8900 F80.00
G01 X43.0385 Y43.8380 F80.00
G01 X43.0634 Y43.7886 F80.00
G01 X43.0906 Y43.7408 F80.00
G01 X43.1203 Y43.6940 F80.00
G01 X43.1516 Y43.6496 F80.00
G01 X43.1860 Y43.6056 F80.00
G01 X43.2223 Y43.5636 F80.00
G01 X43.2595 Y43.5245 F80.00
G01 X43.3004 Y43.4856 F80.00
G01 X43.3423 Y43.4496 F80.00
G01 X43.3846 Y43.4166 F80.00
G01 X43.4310 Y43.3839 F80.00
G01 X43.4777 Y43.3544 F80.00
G01 X43.5258 Y43.3273 F80.00
G01 X43.5751 Y43.3025 F80.00
G01 X43.6250 Y43.2804 F80.00
G01 X43.6772 Y43.2604 F80.00
G01 X43.7296 Y43.2431 F80.00
G01 X43.7828 Y43.2284 F80.00
G01 X43.8355 Y43.2166 F80.00
G01 X43.8887 Y43.2074 F80.00
G01 X43.9435 Y43.2006 F80.00
G01 X43.9986 Y43.1964 F80.00
G01 X44.0538 Y43.1950 F80.00
G01 X45.9050 Y43.1950 F80.00
G01 X45.9590 Y43.1963 F80.00
G01 X46.0165 Y43.2006 F80.00
G01 X46.0713 Y43.2074 F80.00
G01 X46.1245 Y43.2166 F80.00
G01 X46.1772 Y43.2284 F80.00
G01 X46.2304 Y43.2431 F80.00
G01 X46.2852 Y43.2612 F80.00
G01 X46.3350 Y43.2804 F80.00
G01 X46.3849 Y43.3025 F80.00
G01 X46.4364 Y43.3284 F80.00
G01 X46.4842 Y43.3556 F80.00
G01 X46.5290 Y43.3839 F80.00
G01 X46.5754 Y43.4166 F80.00
G01 X46.6177 Y43.4496 F80.00
G01 X46.6614 Y43.4873 F80.00
G01 X46.7005 Y43.5245 F80.00
G01 X46.7377 Y43.5636 F80.00
G01 X46.7754 Y43.6073 F80.00
G01 X46.8084 Y43.6496 F80.00
G01 X46.8397 Y43.6940 F80.00
G01 X46.8706 Y43.7427 F80.00
G01 X46.8977 Y43.7908 F80.00
G01 X46.9215 Y43.8380 F80.00
G01 X46.9448 Y43.8906 F80.00
G01 X46.9638 Y43.9398 F80.00
G01 X46.9812 Y43.9923 F80.00
G01 X46.9966 Y44.0478 F80.00
G01 X47.0084 Y44.1005 F80.00
G01 X47.0176 Y44.1537 F80.00
G01 X47.0247 Y44.2110 F80.00
G01 X47.0286 Y44.2636 F80.00
G01 X47.0300 Y44.3188 F80.00
G01 X47.0287 Y44.3740 F80.00
G01 X47.0245 Y44.4312 F80.00
G01 X47.0176 Y44.4863 F80.00
G01 X47.0084 Y44.5395 F80.00
G01 X46.9966 Y44.5922 F80.00
G01 X46.9819 Y44.6454 F80.00
G01 X46.9646 Y44.6978 F80.00
G01 X46.9446 Y44.7500 F80.00
G01 X46.9215 Y44.8020 F80.00
G01 X46.8977 Y44.8492 F80.00
G01 X46.8694 Y44.8992 F80.00
G01 X46.8411 Y44.9440 F80.00
G01 X46.8084 Y44.9904 F80.00
G01 X46.7740 Y45.0344 F80.00
G01 X46.7377 Y45.0764 F80.00
G01 X46.7005 Y45.1155 F80.00
G01 X46.6596 Y45.1544 F80.00
G01 X46.6177 Y45.1904 F80.00
G01 X46.5754 Y45.2234 F80.00
G01 X46.5290 Y45.2561 F80.00
G01 X46.4823 Y45.2856 F80.00
G01 X46.4342 Y45.3127 F80.00
G01 X46.3870 Y45.3365 F80.00
G01 X46.3350 Y45.3596 F80.00
G01 X46.2828 Y45.3796 F80.00
G01 X46.2304 Y45.3969 F80.00
G01 X46.1772 Y45.4116 F80.00
G01 X46.1245 Y45.4234 F80.00
G01 X46.0713 Y45.4326 F80.00
G01 X46.0165 Y45.4394 F80.00
G01 X45.9614 Y45.4436 F80.00
G01 X45.9062 Y45.4450 F80.00
G01 X44.0550 Y45.4450 F80.00
G01 X44.0010 Y45.4437 F80.00
G01 X43.9435 Y45.4394 F80.00
G01 X43.8887 Y45.4326 F80.00
G01 X43.8355 Y45.4234 F80.00
G01 X43.7828 Y45.4116 F80.00
G01 X43.7296 Y45.3969 F80.00
G01 X43.6748 Y45.3788 F80.00
G01 X43.6250 Y45.3596 F80.00
G01 X43.5751 Y45.3375 F80.00
G01 X43.5236 Y45.3116 F80.00
G01 X43.4758 Y45.2844 F80.00
G01 X43.4310 Y45.2561 F80.00
G01 X43.3846 Y45.2234 F80.00
G01 X43.3406 Y45.1890 F80.00
G01 X43.3004 Y45.1544 F80.00
G01 X43.2595 Y45.1155 F80.00
G01 X43.2206 Y45.0746 F80.00
G01 X43.1846 Y45.0327 F80.00
G01 X43.1516 Y44.9904 F80.00
G01 X43.1203 Y44.9460 F80.00
G01 X43.0907 Y44.8994 F80.00
G01 X43.0623 Y44.8492 F80.00
G01 X43.0385 Y44.8020 F80.00
G01 X43.0161 Y44.7516 F80.00
G01 X42.9954 Y44.6978 F80.00
G01 X42.9788 Y44.6477 F80.00
G01 X42.9640 Y44.5945 F80.00
G01 X42.9516 Y44.5395 F80.00
G01 X42.9424 Y44.4863 F80.00
G01 X42.9356 Y44.4315 F80.00
G01 X42.9313 Y44.3740 F80.00
G00 Z1.9990
G00 X42.9313 Y41.8340
G01 F80.00
G01 Z-0.1493
G01 F80.00
G01 X42.9300 Y41.7800 F80.00
G01 X42.9314 Y41.7236 F80.00
G01 X42.9355 Y41.6688 F80.00
G01 X42.9424 Y41.6137 F80.00
G01 X42.9516 Y41.5605 F80.00
G01 X42.9640 Y41.5055 F80.00
G01 X42.9788 Y41.4523 F80.00
G01 X42.9962 Y41.3998 F80.00
G01 X43.0154 Y41.3500 F80.00
G01 X43.0385 Y41.2980 F80.00
G01 X43.0634 Y41.2486 F80.00
G01 X43.0906 Y41.2008 F80.00
G01 X43.1203 Y41.1540 F80.00
G01 X43.1516 Y41.1096 F80.00
G01 X43.1860 Y41.0656 F80.00
G01 X43.2223 Y41.0236 F80.00
G01 X43.2595 Y40.9845 F80.00
G01 X43.3004 Y40.9456 F80.00
G01 X43.3423 Y40.9096 F80.00
G01 X43.3846 Y40.8766 F80.00
G01 X43.4310 Y40.8439 F80.00
G01 X43.4777 Y40.8144 F80.00
G01 X43.5258 Y40.7873 F80.00
G01 X43.5751 Y40.7625 F80.00
G01 X43.6250 Y40.7404 F80.00
G01 X43.6772 Y40.7204 F80.00
G01 X43.7296 Y40.7031 F80.00
G01 X43.7828 Y40.6884 F80.00
G01 X43.8355 Y40.6766 F80.00
G01 X43.8887 Y40.6674 F80.00
G01 X43.9435 Y40.6606 F80.00
G01 X43.9986 Y40.6564 F80.00
G01 X44.0538 Y40.6550 F80.00
G01 X45.9050 Y40.6550 F80.00
G01 X45.9590 Y40.6563 F80.00
G01 X46.0165 Y40.6606 F80.00
G01 X46.0713 Y40.6674 F80.00
G01 X46.1245 Y40.6766 F80.00
G01 X46.1772 Y40.6884 F80.00
G01 X46.2304 Y40.7031 F80.00
G01 X46.2852 Y40.7212 F80.00
G01 X46.3350 Y40.7404 F80.00
G01 X46.3849 Y40.7625 F80.00
G01 X46.4364 Y40.7884 F80.00
G01 X46.4842 Y40.8156 F80.00
G01 X46.5290 Y40.8439 F80.00
G01 X46.5754 Y40.8766 F80.00
G01 X46.6177 Y40.9096 F80.00
G01 X46.6614 Y40.9473 F80.00
G01 X46.7005 Y40.9845 F80.00
G01 X46.7377 Y41.0236 F80.00
G01 X46.7754 Y41.0673 F80.00
G01 X46.8084 Y41.1096 F80.00
G01 X46.8397 Y41.1540 F80.00
G01 X46.8706 Y41.2027 F80.00
G01 X46.8977 Y41.2508 F80.00
G01 X46.9215 Y41.2980 F80.00
G01 X46.9448 Y41.3506 F80.00
G01 X46.9638 Y41.3998 F80.00
G01 X46.9812 Y41.4523 F80.00
G01 X46.9966 Y41.5078 F80.00
G01 X47.0084 Y41.5605 F80.00
G01 X47.0176 Y41.6137 F80.00
G01 X47.0247 Y41.6710 F80.00
G01 X47.0286 Y41.7236 F80.00
G01 X47.0300 Y41.7788 F80.00
G01 X47.0287 Y41.8340 F80.00
G01 X47.0245 Y41.8912 F80.00
G01 X47.0176 Y41.9463 F80.00
G01 X47.0084 Y41.9995 F80.00
G01 X46.9966 Y42.0522 F80.00
G01 X46.9819 Y42.1054 F80.00
G01 X46.9646 Y42.1578 F80.00
G01 X46.9446 Y42.2100 F80.00
G01 X46.9215 Y42.2620 F80.00
G01 X46.8977 Y42.3092 F80.00
G01 X46.8694 Y42.3592 F80.00
G01 X46.8411 Y42.4040 F80.00
G01 X46.8084 Y42.4504 F80.00
G01 X46.7740 Y42.4944 F80.00
G01 X46.7377 Y42.5364 F80.00
G01 X46.7005 Y42.5755 F80.00
G01 X46.6596 Y42.6144 F80.00
G01 X46.6177 Y42.6504 F80.00
G01 X46.5754 Y42.6834 F80.00
G01 X46.5290 Y42.7161 F80.00
G01 X46.4823 Y42.7456 F80.00
G01 X46.4342 Y42.7727 F80.00
G01 X46.3870 Y42.7965 F80.00
G01 X46.3350 Y42.8196 F80.00
G01 X46.2828 Y42.8396 F80.00
G01 X46.2304 Y42.8569 F80.00
G01 X46.1772 Y42.8716 F80.00
G01 X46.1245 Y42.8834 F80.00
G01 X46.0713 Y42.8926 F80.00
G01 X46.0165 Y42.8994 F80.00
G01 X45.9614 Y42.9036 F80.00
G01 X45.9062 Y42.9050 F80.00
G01 X44.0550 Y42.9050 F80.00
G01 X44.0010 Y42.9037 F80.00
G01 X43.9435 Y42.8994 F80.00
G01 X43.8887 Y42.8926 F80.00
G01 X43.8355 Y42.8834 F80.00
G01 X43.7828 Y42.8716 F80.00
G01 X43.7296 Y42.8569 F80.00
G01 X43.6748 Y42.8388 F80.00
G01 X43.6250 Y42.8196 F80.00
G01 X43.5751 Y42.7975 F80.00
G01 X43.5236 Y42.7716 F80.00
G01 X43.4758 Y42.7444 F80.00
G01 X43.4310 Y42.7161 F80.00
G01 X43.3846 Y42.6834 F80.00
G01 X43.3406 Y42.6490 F80.00
G01 X43.3004 Y42.6144 F80.00
G01 X43.2595 Y42.5755 F80.00
G01 X43.2206 Y42.5346 F80.00
G01 X43.1846 Y42.4927 F80.00
G01 X43.1516 Y42.4504 F80.00
G01 X43.1203 Y42.4060 F80.00
G01 X43.0907 Y42.3594 F80.00
G01 X43.0623 Y42.3092 F80.00
G01 X43.0385 Y42.2620 F80.00
G01 X43.0161 Y42.2116 F80.00
G01 X42.9954 Y42.1578 F80.00
G01 X42.9788 Y42.1077 F80.00
G01 X42.9640 Y42.0545 F80.00
G01 X42.9516 Y41.9995 F80.00
G01 X42.9424 Y41.9463 F80.00
G01 X42.9356 Y41.8915 F80.00
G01 X42.9313 Y41.8340 F80.00
G00 Z1.9990
G00 X42.9313 Y39.2940
G01 F80.00
G01 Z-0.1493
G01 F80.00
G01 X42.9300 Y39.2400 F80.00
G01 X42.9314 Y39.1836 F80.00
G01 X42.9355 Y39.1288 F80.00
G01 X42.9424 Y39.0737 F80.00
G01 X42.9516 Y39.0205 F80.00
G01 X42.9640 Y38.9655 F80.00
G01 X42.9788 Y38.9123 F80.00
G01 X42.9962 Y38.8598 F80.00
G01 X43.0154 Y38.8100 F80.00
G01 X43.0385 Y38.7580 F80.00
G01 X43.0634 Y38.7086 F80.00
G01 X43.0906 Y38.6608 F80.00
G01 X43.1203 Y38.6140 F80.00
G01 X43.1516 Y38.5696 F80.00
G01 X43.1860 Y38.5256 F80.00
G01 X43.2223 Y38.4836 F80.00
G01 X43.2595 Y38.4445 F80.00
G01 X43.3004 Y38.4056 F80.00
G01 X43.3423 Y38.3696 F80.00
G01 X43.3846 Y38.3366 F80.00
G01 X43.4310 Y38.3039 F80.00
G01 X43.4777 Y38.2744 F80.00
G01 X43.5258 Y38.2473 F80.00
G01 X43.5751 Y38.2225 F80.00
G01 X43.6250 Y38.2004 F80.00
G01 X43.6772 Y38.1804 F80.00
G01 X43.7296 Y38.1631 F80.00
G01 X43.7828 Y38.1484 F80.00
G01 X43.8355 Y38.1366 F80.00
G01 X43.8887 Y38.1274 F80.00
G01 X43.9435 Y38.1206 F80.00
G01 X43.9986 Y38.1164 F80.00
G01 X44.0538 Y38.1150 F80.00
G01 X45.9050 Y38.1150 F80.00
G01 X45.9590 Y38.1163 F80.00
G01 X46.0165 Y38.1206 F80.00
G01 X46.0713 Y38.1274 F80.00
G01 X46.1245 Y38.1366 F80.00
G01 X46.1772 Y38.1484 F80.00
G01 X46.2304 Y38.1631 F80.00
G01 X46.2852 Y38.1812 F80.00
G01 X46.3350 Y38.2004 F80.00
G01 X46.3849 Y38.2225 F80.00
G01 X46.4364 Y38.2484 F80.00
G01 X46.4842 Y38.2756 F80.00
G01 X46.5290 Y38.3039 F80.00
G01 X46.5754 Y38.3366 F80.00
G01 X46.6177 Y38.3696 F80.00
G01 X46.6614 Y38.4073 F80.00
G01 X46.7005 Y38.4445 F80.00
G01 X46.7377 Y38.4836 F80.00
G01 X46.7754 Y38.5273 F80.00
G01 X46.8084 Y38.5696 F80.00
G01 X46.8397 Y38.6140 F80.00
G01 X46.8706 Y38.6627 F80.00
G01 X46.8977 Y38.7108 F80.00
G01 X46.9215 Y38.7580 F80.00
G01 X46.9448 Y38.8106 F80.00
G01 X46.9638 Y38.8598 F80.00
G01 X46.9812 Y38.9123 F80.00
G01 X46.9966 Y38.9678 F80.00
G01 X47.0084 Y39.0205 F80.00
G01 X47.0176 Y39.0737 F80.00
G01 X47.0247 Y39.1310 F80.00
G01 X47.0286 Y39.1836 F80.00
G01 X47.0300 Y39.2388 F80.00
G01 X47.0287 Y39.2940 F80.00
G01 X47.0245 Y39.3512 F80.00
G01 X47.0176 Y39.4063 F80.00
G01 X47.0084 Y39.4595 F80.00
G01 X46.9966 Y39.5122 F80.00
G01 X46.9819 Y39.5654 F80.00
G01 X46.9646 Y39.6178 F80.00
G01 X46.9446 Y39.6700 F80.00
G01 X46.9215 Y39.7220 F80.00
G01 X46.8977 Y39.7692 F80.00
G01 X46.8694 Y39.8192 F80.00
G01 X46.8411 Y39.8640 F80.00
G01 X46.8084 Y39.9104 F80.00
G01 X46.7740 Y39.9544 F80.00
G01 X46.7377 Y39.9964 F80.00
G01 X46.7005 Y40.0355 F80.00
G01 X46.6596 Y40.0744 F80.00
G01 X46.6177 Y40.1104 F80.00
G01 X46.5754 Y40.1434 F80.00
G01 X46.5290 Y40.1761 F80.00
G01 X46.4823 Y40.2056 F80.00
G01 X46.4342 Y40.2327 F80.00
G01 X46.3870 Y40.2565 F80.00
G01 X46.3350 Y40.2796 F80.00
G01 X46.2828 Y40.2996 F80.00
G01 X46.2304 Y40.3169 F80.00
G01 X46.1772 Y40.3316 F80.00
G01 X46.1245 Y40.3434 F80.00
G01 X46.0713 Y40.3526 F80.00
G01 X46.0165 Y40.3594 F80.00
G01 X45.9614 Y40.3636 F80.00
G01 X45.9062 Y40.3650 F80.00
G01 X44.0550 Y40.3650 F80.00
G01 X44.0010 Y40.3637 F80.00
G01 X43.9435 Y40.3594 F80.00
G01 X43.8887 Y40.3526 F80.00
G01 X43.8355 Y40.3434 F80.00
G01 X43.7828 Y40.3316 F80.00
G01 X43.7296 Y40.3169 F80.00
G01 X43.6748 Y40.2988 F80.00
G01 X43.6250 Y40.2796 F80.00
G01 X43.5751 Y40.2575 F80.00
G01 X43.5236 Y40.2316 F80.00
G01 X43.4758 Y40.2044 F80.00
G01 X43.4310 Y40.1761 F80.00
G01 X43.3846 Y40.1434 F80.00
G01 X43.3406 Y40.1090 F80.00
G01 X43.3004 Y40.0744 F80.00
G01 X43.2595 Y40.0355 F80.00
G01 X43.2206 Y39.9946 F80.00
G01 X43.1846 Y39.9527 F80.00
G01 X43.1516 Y39.9104 F80.00
G01 X43.1203 Y39.8660 F80.00
G01 X43.0907 Y39.8194 F80.00
G01 X43.0623 Y39.7692 F80.00
G01 X43.0385 Y39.7220 F80.00
G01 X43.0161 Y39.6716 F80.00
G01 X42.9954 Y39.6178 F80.00
G01 X42.9788 Y39.5677 F80.00
G01 X42.9640 Y39.5145 F80.00
G01 X42.9516 Y39.4595 F80.00
G01 X42.9424 Y39.4063 F80.00
G01 X42.9356 Y39.3515 F80.00
G01 X42.9313 Y39.2940 F80.00
G00 Z1.9990
G00 X42.9313 Y36.7540
G01 F80.00
G01 Z-0.1493
G01 F80.00
G01 X42.9300 Y36.7000 F80.00
G01 X42.9314 Y36.6436 F80.00
G01 X42.9355 Y36.5888 F80.00
G01 X42.9424 Y36.5337 F80.00
G01 X42.9516 Y36.4805 F80.00
G01 X42.9640 Y36.4255 F80.00
G01 X42.9788 Y36.3723 F80.00
G01 X42.9962 Y36.3198 F80.00
G01 X43.0154 Y36.2700 F80.00
G01 X43.0385 Y36.2180 F80.00
G01 X43.0634 Y36.1686 F80.00
G01 X43.0906 Y36.1208 F80.00
G01 X43.1203 Y36.0740 F80.00
G01 X43.1516 Y36.0296 F80.00
G01 X43.1860 Y35.9856 F80.00
G01 X43.2223 Y35.9436 F80.00
G01 X43.2595 Y35.9045 F80.00
G01 X43.3004 Y35.8656 F80.00
G01 X43.3423 Y35.8296 F80.00
G01 X43.3846 Y35.7966 F80.00
G01 X43.4310 Y35.7639 F80.00
G01 X43.4777 Y35.7344 F80.00
G01 X43.5258 Y35.7073 F80.00
G01 X43.5751 Y35.6825 F80.00
G01 X43.6250 Y35.6604 F80.00
G01 X43.6772 Y35.6404 F80.00
G01 X43.7296 Y35.6231 F80.00
G01 X43.7828 Y35.6084 F80.00
G01 X43.8355 Y35.5966 F80.00
G01 X43.8887 Y35.5874 F80.00
G01 X43.9435 Y35.5806 F80.00
G01 X43.9986 Y35.5764 F80.00
G01 X44.0538 Y35.5750 F80.00
G01 X45.9050 Y35.5750 F80.00
G01 X45.9590 Y35.5763 F80.00
G01 X46.0165 Y35.5806 F80.00
G01 X46.0713 Y35.5874 F80.00
G01 X46.1245 Y35.5966 F80.00
G01 X46.1772 Y35.6084 F80.00
G01 X46.2304 Y35.6231 F80.00
G01 X46.2852 Y35.6412 F80.00
G01 X46.3350 Y35.6604 F80.00
G01 X46.3849 Y35.6825 F80.00
G01 X46.4364 Y35.7084 F80.00
G01 X46.4842 Y35.7356 F80.00
G01 X46.5290 Y35.7639 F80.00
G01 X46.5754 Y35.7966 F80.00
G01 X46.6177 Y35.8296 F80.00
G01 X46.6614 Y35.8673 F80.00
G01 X46.7005 Y35.9045 F80.00
G01 X46.7377 Y35.9436 F80.00
G01 X46.7754 Y35.9873 F80.00
G01 X46.8084 Y36.0296 F80.00
G01 X46.8397 Y36.0740 F80.00
G01 X46.8706 Y36.1227 F80.00
G01 X46.8977 Y36.1708 F80.00
G01 X46.9215 Y36.2180 F80.00
G01 X46.9448 Y36.2706 F80.00
G01 X46.9638 Y36.3198 F80.00
G01 X46.9812 Y36.3723 F80.00
G01 X46.9966 Y36.4278 F80.00
G01 X47.0084 Y36.4805 F80.00
G01 X47.0176 Y36.5337 F80.00
G01 X47.0247 Y36.5910 F80.00
G01 X47.0286 Y36.6436 F80.00
G01 X47.0300 Y36.6988 F80.00
G01 X47.0287 Y36.7540 F80.00
G01 X47.0245 Y36.8112 F80.00
G01 X47.0176 Y36.8663 F80.00
G01 X47.0084 Y36.9195 F80.00
G01 X46.9966 Y36.9722 F80.00
G01 X46.9819 Y37.0254 F80.00
G01 X46.9646 Y37.0778 F80.00
G01 X46.9446 Y37.1300 F80.00
G01 X46.9215 Y37.1820 F80.00
G01 X46.8977 Y37.2292 F80.00
G01 X46.8694 Y37.2792 F80.00
G01 X46.8411 Y37.3240 F80.00
G01 X46.8084 Y37.3704 F80.00
G01 X46.7740 Y37.4144 F80.00
G01 X46.7377 Y37.4564 F80.00
G01 X46.7005 Y37.4955 F80.00
G01 X46.6596 Y37.5344 F80.00
G01 X46.6177 Y37.5704 F80.00
G01 X46.5754 Y37.6034 F80.00
G01 X46.5290 Y37.6361 F80.00
G01 X46.4823 Y37.6656 F80.00
G01 X46.4342 Y37.6927 F80.00
G01 X46.3870 Y37.7165 F80.00
G01 X46.3350 Y37.7396 F80.00
G01 X46.2828 Y37.7596 F80.00
G01 X46.2304 Y37.7769 F80.00
G01 X46.1772 Y37.7916 F80.00
G01 X46.1245 Y37.8034 F80.00
G01 X46.0713 Y37.8126 F80.00
G01 X46.0165 Y37.8194 F80.00
G01 X45.9614 Y37.8236 F80.00
G01 X45.9062 Y37.8250 F80.00
G01 X44.0550 Y37.8250 F80.00
G01 X44.0010 Y37.8237 F80.00
G01 X43.9435 Y37.8194 F80.00
G01 X43.8887 Y37.8126 F80.00
G01 X43.8355 Y37.8034 F80.00
G01 X43.7828 Y37.7916 F80.00
G01 X43.7296 Y37.7769 F80.00
G01 X43.6748 Y37.7588 F80.00
G01 X43.6250 Y37.7396 F80.00
G01 X43.5751 Y37.7175 F80.00
G01 X43.5236 Y37.6916 F80.00
G01 X43.4758 Y37.6644 F80.00
G01 X43.4310 Y37.6361 F80.00
G01 X43.3846 Y37.6034 F80.00
G01 X43.3406 Y37.5690 F80.00
G01 X43.3004 Y37.5344 F80.00
G01 X43.2595 Y37.4955 F80.00
G01 X43.2206 Y37.4546 F80.00
G01 X43.1846 Y37.4127 F80.00
G01 X43.1516 Y37.3704 F80.00
G01 X43.1203 Y37.3260 F80.00
G01 X43.0907 Y37.2794 F80.00
G01 X43.0623 Y37.2292 F80.00
G01 X43.0385 Y37.1820 F80.00
G01 X43.0161 Y37.1316 F80.00
G01 X42.9954 Y37.0778 F80.00
G01 X42.9788 Y37.0277 F80.00
G01 X42.9640 Y36.9745 F80.00
G01 X42.9516 Y36.9195 F80.00
G01 X42.9424 Y36.8663 F80.00
G01 X42.9356 Y36.8115 F80.00
G01 X42.9313 Y36.7540 F80.00
G00 Z1.9990
G00 X42.9313 Y34.2140
G01 F80.00
G01 Z-0.1493
G01 F80.00
G01 X42.9300 Y34.1600 F80.00
G01 X42.9314 Y34.1036 F80.00
G01 X42.9355 Y34.0488 F80.00
G01 X42.9424 Y33.9937 F80.00
G01 X42.9516 Y33.9405 F80.00
G01 X42.9640 Y33.8855 F80.00
G01 X42.9788 Y33.8323 F80.00
G01 X42.9962 Y33.7798 F80.00
G01 X43.0154 Y33.7300 F80.00
G01 X43.0385 Y33.6780 F80.00
G01 X43.0634 Y33.6286 F80.00
G01 X43.0906 Y33.5808 F80.00
G01 X43.1203 Y33.5340 F80.00
G01 X43.1516 Y33.4896 F80.00
G01 X43.1860 Y33.4456 F80.00
G01 X43.2223 Y33.4036 F80.00
G01 X43.2595 Y33.3645 F80.00
G01 X43.3004 Y33.3256 F80.00
G01 X43.3423 Y33.2896 F80.00
G01 X43.3846 Y33.2566 F80.00
G01 X43.4310 Y33.2239 F80.00
G01 X43.4777 Y33.1944 F80.00
G01 X43.5258 Y33.1673 F80.00
G01 X43.5751 Y33.1425 F80.00
G01 X43.6250 Y33.1204 F80.00
G01 X43.6772 Y33.1004 F80.00
G01 X43.7296 Y33.0831 F80.00
G01 X43.7828 Y33.0684 F80.00
G01 X43.8355 Y33.0566 F80.00
G01 X43.8887 Y33.0474 F80.00
G01 X43.9435 Y33.0406 F80.00
G01 X43.9986 Y33.0364 F80.00
G01 X44.0538 Y33.0350 F80.00
G01 X45.9050 Y33.0350 F80.00
G01 X45.9590 Y33.0363 F80.00
G01 X46.0165 Y33.0406 F80.00
G01 X46.0713 Y33.0474 F80.00
G01 X46.1245 Y33.0566 F80.00
G01 X46.1772 Y33.0684 F80.00
G01 X46.2304 Y33.0831 F80.00
G01 X46.2852 Y33.1012 F80.00
G01 X46.3350 Y33.1204 F80.00
G01 X46.3849 Y33.1425 F80.00
G01 X46.4364 Y33.1684 F80.00
G01 X46.4842 Y33.1956 F80.00
G01 X46.5290 Y33.2239 F80.00
G01 X46.5754 Y33.2566 F80.00
G01 X46.6177 Y33.2896 F80.00
G01 X46.6614 Y33.3273 F80.00
G01 X46.7005 Y33.3645 F80.00
G01 X46.7377 Y33.4036 F80.00
G01 X46.7754 Y33.4473 F80.00
G01 X46.8084 Y33.4896 F80.00
G01 X46.8397 Y33.5340 F80.00
G01 X46.8706 Y33.5827 F80.00
G01 X46.8977 Y33.6308 F80.00
G01 X46.9215 Y33.6780 F80.00
G01 X46.9448 Y33.7306 F80.00
G01 X46.9638 Y33.7798 F80.00
G01 X46.9812 Y33.8323 F80.00
G01 X46.9966 Y33.8878 F80.00
G01 X47.0084 Y33.9405 F80.00
G01 X47.0176 Y33.9937 F80.00
G01 X47.0247 Y34.0510 F80.00
G01 X47.0286 Y34.1036 F80.00
G01 X47.0300 Y34.1588 F80.00
G01 X47.0287 Y34.2140 F80.00
G01 X47.0245 Y34.2712 F80.00
G01 X47.0176 Y34.3263 F80.00
G01 X47.0084 Y34.3795 F80.00
G01 X46.9966 Y34.4322 F80.00
G01 X46.9819 Y34.4854 F80.00
G01 X46.9646 Y34.5378 F80.00
G01 X46.9446 Y34.5900 F80.00
G01 X46.9215 Y34.6420 F80.00
G01 X46.8977 Y34.6892 F80.00
G01 X46.8694 Y34.7392 F80.00
G01 X46.8411 Y34.7840 F80.00
G01 X46.8084 Y34.8304 F80.00
G01 X46.7740 Y34.8744 F80.00
G01 X46.7377 Y34.9164 F80.00
G01 X46.7005 Y34.9555 F80.00
G01 X46.6596 Y34.9944 F80.00
G01 X46.6177 Y35.0304 F80.00
G01 X46.5754 Y35.0634 F80.00
G01 X46.5290 Y35.0961 F80.00
G01 X46.4823 Y35.1256 F80.00
G01 X46.4342 Y35.1527 F80.00
G01 X46.3870 Y35.1765 F80.00
G01 X46.3350 Y35.1996 F80.00
G01 X46.2828 Y35.2196 F80.00
G01 X46.2304 Y35.2369 F80.00
G01 X46.1772 Y35.2516 F80.00
G01 X46.1245 Y35.2634 F80.00
G01 X46.0713 Y35.2726 F80.00
G01 X46.0165 Y35.2794 F80.00
G01 X45.9614 Y35.2836 F80.00
G01 X45.9062 Y35.2850 F80.00
G01 X44.0550 Y35.2850 F80.00
G01 X44.0010 Y35.2837 F80.00
G01 X43.9435 Y35.2794 F80.00
G01 X43.8887 Y35.2726 F80.00
G01 X43.8355 Y35.2634 F80.00
G01 X43.7828 Y35.2516 F80.00
G01 X43.7296 Y35.2369 F80.00
G01 X43.6748 Y35.2188 F80.00
G01 X43.6250 Y35.1996 F80.00
G01 X43.5751 Y35.1775 F80.00
G01 X43.5236 Y35.1516 F80.00
G01 X43.4758 Y35.1244 F80.00
G01 X43.4310 Y35.0961 F80.00
G01 X43.3846 Y35.0634 F80.00
G01 X43.3406 Y35.0290 F80.00
G01 X43.3004 Y34.9944 F80.00
G01 X43.2595 Y34.9555 F80.00
G01 X43.2206 Y34.9146 F80.00
G01 X43.1846 Y34.8727 F80.00
G01 X43.1516 Y34.8304 F80.00
G01 X43.1203 Y34.7860 F80.00
G01 X43.0907 Y34.7394 F80.00
G01 X43.0623 Y34.6892 F80.00
G01 X43.0385 Y34.6420 F80.00
G01 X43.0161 Y34.5916 F80.00
G01 X42.9954 Y34.5378 F80.00
G01 X42.9788 Y34.4877 F80.00
G01 X42.9640 Y34.4345 F80.00
G01 X42.9516 Y34.3795 F80.00
G01 X42.9424 Y34.3263 F80.00
G01 X42.9356 Y34.2715 F80.00
G01 X42.9313 Y34.2140 F80.00
G00 Z1.9990
G00 X42.9313 Y31.6740
G01 F80.00
G01 Z-0.1493
G01 F80.00
G01 X42.9300 Y31.6200 F80.00
G01 X42.9314 Y31.5636 F80.00
G01 X42.9355 Y31.5088 F80.00
G01 X42.9424 Y31.4537 F80.00
G01 X42.9516 Y31.4005 F80.00
G01 X42.9640 Y31.3455 F80.00
G01 X42.9788 Y31.2923 F80.00
G01 X42.9962 Y31.2398 F80.00
G01 X43.0154 Y31.1900 F80.00
G01 X43.0385 Y31.1380 F80.00
G01 X43.0634 Y31.0886 F80.00
G01 X43.0906 Y31.0408 F80.00
G01 X43.1203 Y30.9940 F80.00
G01 X43.1516 Y30.9496 F80.00
G01 X43.1860 Y30.9056 F80.00
G01 X43.2223 Y30.8636 F80.00
G01 X43.2595 Y30.8245 F80.00
G01 X43.3004 Y30.7856 F80.00
G01 X43.3423 Y30.7496 F80.00
G01 X43.3846 Y30.7166 F80.00
G01 X43.4310 Y30.6839 F80.00
G01 X43.4777 Y30.6544 F80.00
G01 X43.5258 Y30.6273 F80.00
G01 X43.5751 Y30.6025 F80.00
G01 X43.6250 Y30.5804 F80.00
G01 X43.6772 Y30.5604 F80.00
G01 X43.7296 Y30.5431 F80.00
G01 X43.7828 Y30.5284 F80.00
G01 X43.8355 Y30.5166 F80.00
G01 X43.8887 Y30.5074 F80.00
G01 X43.9435 Y30.5006 F80.00
G01 X43.9986 Y30.4964 F80.00
G01 X44.0538 Y30.4950 F80.00
G01 X45.9050 Y30.4950 F80.00
G01 X45.9590 Y30.4963 F80.00
G01 X46.0165 Y30.5006 F80.00
G01 X46.0713 Y30.5074 F80.00
G01 X46.1245 Y30.5166 F80.00
G01 X46.1772 Y30.5284 F80.00
G01 X46.2304 Y30.5431 F80.00
G01 X46.2852 Y30.5612 F80.00
G01 X46.3350 Y30.5804 F80.00
G01 X46.3849 Y30.6025 F80.00
G01 X46.4364 Y30.6284 F80.00
G01 X46.4842 Y30.6556 F80.00
G01 X46.5290 Y30.6839 F80.00
G01 X46.5754 Y30.7166 F80.00
G01 X46.6177 Y30.7496 F80.00
G01 X46.6614 Y30.7873 F80.00
G01 X46.7005 Y30.8245 F80.00
G01 X46.7377 Y30.8636 F80.00
G01 X46.7754 Y30.9073 F80.00
G01 X46.8084 Y30.9496 F80.00
G01 X46.8397 Y30.9940 F80.00
G01 X46.8706 Y31.0427 F80.00
G01 X46.8977 Y31.0908 F80.00
G01 X46.9215 Y31.1380 F80.00
G01 X46.9448 Y31.1906 F80.00
G01 X46.9638 Y31.2398 F80.00
G01 X46.9812 Y31.2923 F80.00
G01 X46.9966 Y31.3478 F80.00
G01 X47.0084 Y31.4005 F80.00
G01 X47.0176 Y31.4537 F80.00
G01 X47.0247 Y31.5110 F80.00
G01 X47.0286 Y31.5636 F80.00
G01 X47.0300 Y31.6188 F80.00
G01 X47.0287 Y31.6740 F80.00
G01 X47.0245 Y31.7312 F80.00
G01 X47.0176 Y31.7863 F80.00
G01 X47.0084 Y31.8395 F80.00
G01 X46.9966 Y31.8922 F80.00
G01 X46.9819 Y31.9454 F80.00
G01 X46.9646 Y31.9978 F80.00
G01 X46.9446 Y32.0500 F80.00
G01 X46.9215 Y32.1020 F80.00
G01 X46.8977 Y32.1492 F80.00
G01 X46.8694 Y32.1992 F80.00
G01 X46.8411 Y32.2440 F80.00
G01 X46.8084 Y32.2904 F80.00
G01 X46.7740 Y32.3344 F80.00
G01 X46.7377 Y32.3764 F80.00
G01 X46.7005 Y32.4155 F80.00
G01 X46.6596 Y32.4544 F80.00
G01 X46.6177 Y32.4904 F80.00
G01 X46.5754 Y32.5234 F80.00
G01 X46.5290 Y32.5561 F80.00
G01 X46.4823 Y32.5856 F80.00
G01 X46.4342 Y32.6127 F80.00
G01 X46.3870 Y32.6365 F80.00
G01 X46.3350 Y32.6596 F80.00
G01 X46.2828 Y32.6796 F80.00
G01 X46.2304 Y32.6969 F80.00
G01 X46.1772 Y32.7116 F80.00
G01 X46.1245 Y32.7234 F80.00
G01 X46.0713 Y32.7326 F80.00
G01 X46.0165 Y32.7394 F80.00
G01 X45.9614 Y32.7436 F80.00
G01 X45.9062 Y32.7450 F80.00
G01 X44.0550 Y32.7450 F80.00
G01 X44.0010 Y32.7437 F80.00
G01 X43.9435 Y32.7394 F80.00
G01 X43.8887 Y32.7326 F80.00
G01 X43.8355 Y32.7234 F80.00
G01 X43.7828 Y32.7116 F80.00
G01 X43.7296 Y32.6969 F80.00
G01 X43.6748 Y32.6788 F80.00
G01 X43.6250 Y32.6596 F80.00
G01 X43.5751 Y32.6375 F80.00
G01 X43.5236 Y32.6116 F80.00
G01 X43.4758 Y32.5844 F80.00
G01 X43.4310 Y32.5561 F80.00
G01 X43.3846 Y32.5234 F80.00
G01 X43.3406 Y32.4890 F80.00
G01 X43.3004 Y32.4544 F80.00
G01 X43.2595 Y32.4155 F80.00
G01 X43.2206 Y32.3746 F80.00
G01 X43.1846 Y32.3327 F80.00
G01 X43.1516 Y32.2904 F80.00
G01 X43.1203 Y32.2460 F80.00
G01 X43.0907 Y32.1994 F80.00
G01 X43.0623 Y32.1492 F80.00
G01 X43.0385 Y32.1020 F80.00
G01 X43.0161 Y32.0516 F80.00
G01 X42.9954 Y31.9978 F80.00
G01 X42.9788 Y31.9477 F80.00
G01 X42.9640 Y31.8945 F80.00
G01 X42.9516 Y31.8395 F80.00
G01 X42.9424 Y31.7863 F80.00
G01 X42.9356 Y31.7315 F80.00
G01 X42.9313 Y31.6740 F80.00
G00 Z1.9990
G00 X42.9313 Y29.1340
G01 F80.00
G01 Z-0.1493
G01 F80.00
G01 X42.9300 Y29.0800 F80.00
G01 X42.9314 Y29.0236 F80.00
G01 X42.9355 Y28.9688 F80.00
G01 X42.9424 Y28.9137 F80.00
G01 X42.9516 Y28.8605 F80.00
G01 X42.9640 Y28.8055 F80.00
G01 X42.9788 Y28.7523 F80.00
G01 X42.9962 Y28.6998 F80.00
G01 X43.0154 Y28.6500 F80.00
G01 X43.0385 Y28.5980 F80.00
G01 X43.0634 Y28.5486 F80.00
G01 X43.0906 Y28.5008 F80.00
G01 X43.1203 Y28.4540 F80.00
G01 X43.1516 Y28.4096 F80.00
G01 X43.1860 Y28.3656 F80.00
G01 X43.2223 Y28.3236 F80.00
G01 X43.2595 Y28.2845 F80.00
G01 X43.3004 Y28.2456 F80.00
G01 X43.3423 Y28.2096 F80.00
G01 X43.3846 Y28.1766 F80.00
G01 X43.4310 Y28.1439 F80.00
G01 X43.4777 Y28.1144 F80.00
G01 X43.5258 Y28.0873 F80.00
G01 X43.5751 Y28.0625 F80.00
G01 X43.6250 Y28.0404 F80.00
G01 X43.6772 Y28.0204 F80.00
G01 X43.7296 Y28.0031 F80.00
G01 X43.7828 Y27.9884 F80.00
G01 X43.8355 Y27.9766 F80.00
G01 X43.8887 Y27.9674 F80.00
G01 X43.9435 Y27.9606 F80.00
G01 X43.9986 Y27.9564 F80.00
G01 X44.0538 Y27.9550 F80.00
G01 X45.9050 Y27.9550 F80.00
G01 X45.9590 Y27.9563 F80.00
G01 X46.0165 Y27.9606 F80.00
G01 X46.0713 Y27.9674 F80.00
G01 X46.1245 Y27.9766 F80.00
G01 X46.1772 Y27.9884 F80.00
G01 X46.2304 Y28.0031 F80.00
G01 X46.2852 Y28.0212 F80.00
G01 X46.3350 Y28.0404 F80.00
G01 X46.3849 Y28.0625 F80.00
G01 X46.4364 Y28.0884 F80.00
G01 X46.4842 Y28.1156 F80.00
G01 X46.5290 Y28.1439 F80.00
G01 X46.5754 Y28.1766 F80.00
G01 X46.6177 Y28.2096 F80.00
G01 X46.6614 Y28.2473 F80.00
G01 X46.7005 Y28.2845 F80.00
G01 X46.7377 Y28.3236 F80.00
G01 X46.7754 Y28.3673 F80.00
G01 X46.8084 Y28.4096 F80.00
G01 X46.8397 Y28.4540 F80.00
G01 X46.8706 Y28.5027 F80.00
G01 X46.8977 Y28.5508 F80.00
G01 X46.9215 Y28.5980 F80.00
G01 X46.9448 Y28.6506 F80.00
G01 X46.9638 Y28.6998 F80.00
G01 X46.9812 Y28.7523 F80.00
G01 X46.9966 Y28.8078 F80.00
G01 X47.0084 Y28.8605 F80.00
G01 X47.0176 Y28.9137 F80.00
G01 X47.0247 Y28.9710 F80.00
G01 X47.0286 Y29.0236 F80.00
G01 X47.0300 Y29.0788 F80.00
G01 X47.0287 Y29.1340 F80.00
G01 X47.0245 Y29.1912 F80.00
G01 X47.0176 Y29.2463 F80.00
G01 X47.0084 Y29.2995 F80.00
G01 X46.9966 Y29.3522 F80.00
G01 X46.9819 Y29.4054 F80.00
G01 X46.9646 Y29.4578 F80.00
G01 X46.9446 Y29.5100 F80.00
G01 X46.9215 Y29.5620 F80.00
G01 X46.8977 Y29.6092 F80.00
G01 X46.8694 Y29.6592 F80.00
G01 X46.8411 Y29.7040 F80.00
G01 X46.8084 Y29.7504 F80.00
G01 X46.7740 Y29.7944 F80.00
G01 X46.7377 Y29.8364 F80.00
G01 X46.7005 Y29.8755 F80.00
G01 X46.6596 Y29.9144 F80.00
G01 X46.6177 Y29.9504 F80.00
G01 X46.5754 Y29.9834 F80.00
G01 X46.5290 Y30.0161 F80.00
G01 X46.4823 Y30.0456 F80.00
G01 X46.4342 Y30.0727 F80.00
G01 X46.3870 Y30.0965 F80.00
G01 X46.3350 Y30.1196 F80.00
G01 X46.2828 Y30.1396 F80.00
G01 X46.2304 Y30.1569 F80.00
G01 X46.1772 Y30.1716 F80.00
G01 X46.1245 Y30.1834 F80.00
G01 X46.0713 Y30.1926 F80.00
G01 X46.0165 Y30.1994 F80.00
G01 X45.9614 Y30.2036 F80.00
G01 X45.9062 Y30.2050 F80.00
G01 X44.0550 Y30.2050 F80.00
G01 X44.0010 Y30.2037 F80.00
G01 X43.9435 Y30.1994 F80.00
G01 X43.8887 Y30.1926 F80.00
G01 X43.8355 Y30.1834 F80.00
G01 X43.7828 Y30.1716 F80.00
G01 X43.7296 Y30.1569 F80.00
G01 X43.6748 Y30.1388 F80.00
G01 X43.6250 Y30.1196 F80.00
G01 X43.5751 Y30.0975 F80.00
G01 X43.5236 Y30.0716 F80.00
G01 X43.4758 Y30.0444 F80.00
G01 X43.4310 Y30.0161 F80.00
G01 X43.3846 Y29.9834 F80.00
G01 X43.3406 Y29.9490 F80.00
G01 X43.3004 Y29.9144 F80.00
G01 X43.2595 Y29.8755 F80.00
G01 X43.2206 Y29.8346 F80.00
G01 X43.1846 Y29.7927 F80.00
G01 X43.1516 Y29.7504 F80.00
G01 X43.1203 Y29.7060 F80.00
G01 X43.0907 Y29.6594 F80.00
G01 X43.0623 Y29.6092 F80.00
G01 X43.0385 Y29.5620 F80.00
G01 X43.0161 Y29.5116 F80.00
G01 X42.9954 Y29.4578 F80.00
G01 X42.9788 Y29.4077 F80.00
G01 X42.9640 Y29.3545 F80.00
G01 X42.9516 Y29.2995 F80.00
G01 X42.9424 Y29.2463 F80.00
G01 X42.9356 Y29.1915 F80.00
G01 X42.9313 Y29.1340 F80.00
G00 Z1.9990
G00 X42.9313 Y26.5940
G01 F80.00
G01 Z-0.1493
G01 F80.00
G01 X42.9300 Y26.5400 F80.00
G01 X42.9314 Y26.4836 F80.00
G01 X42.9355 Y26.4288 F80.00
G01 X42.9424 Y26.3737 F80.00
G01 X42.9516 Y26.3205 F80.00
G01 X42.9640 Y26.2655 F80.00
G01 X42.9788 Y26.2123 F80.00
G01 X42.9962 Y26.1598 F80.00
G01 X43.0154 Y26.1100 F80.00
G01 X43.0385 Y26.0580 F80.00
G01 X43.0634 Y26.0086 F80.00
G01 X43.0906 Y25.9608 F80.00
G01 X43.1203 Y25.9140 F80.00
G01 X43.1516 Y25.8696 F80.00
G01 X43.1860 Y25.8256 F80.00
G01 X43.2223 Y25.7836 F80.00
G01 X43.2595 Y25.7445 F80.00
G01 X43.3004 Y25.7056 F80.00
G01 X43.3423 Y25.6696 F80.00
G01 X43.3846 Y25.6366 F80.00
G01 X43.4310 Y25.6039 F80.00
G01 X43.4777 Y25.5744 F80.00
G01 X43.5258 Y25.5473 F80.00
G01 X43.5751 Y25.5225 F80.00
G01 X43.6250 Y25.5004 F80.00
G01 X43.6772 Y25.4804 F80.00
G01 X43.7296 Y25.4631 F80.00
G01 X43.7828 Y25.4484 F80.00
G01 X43.8355 Y25.4366 F80.00
G01 X43.8887 Y25.4274 F80.00
G01 X43.9435 Y25.4206 F80.00
G01 X43.9986 Y25.4164 F80.00
G01 X44.0538 Y25.4150 F80.00
G01 X45.9050 Y25.4150 F80.00
G01 X45.9590 Y25.4163 F80.00
G01 X46.0165 Y25.4206 F80.00
G01 X46.0713 Y25.4274 F80.00
G01 X46.1245 Y25.4366 F80.00
G01 X46.1772 Y25.4484 F80.00
G01 X46.2304 Y25.4631 F80.00
G01 X46.2852 Y25.4812 F80.00
G01 X46.3350 Y25.5004 F80.00
G01 X46.3849 Y25.5225 F80.00
G01 X46.4364 Y25.5484 F80.00
G01 X46.4842 Y25.5756 F80.00
G01 X46.5290 Y25.6039 F80.00
G01 X46.5754 Y25.6366 F80.00
G01 X46.6177 Y25.6696 F80.00
G01 X46.6614 Y25.7073 F80.00
G01 X46.7005 Y25.7445 F80.00
G01 X46.7377 Y25.7836 F80.00
G01 X46.7754 Y25.8273 F80.00
G01 X46.8084 Y25.8696 F80.00
G01 X46.8397 Y25.9140 F80.00
G01 X46.8706 Y25.9627 F80.00
G01 X46.8977 Y26.0108 F80.00
G01 X46.9215 Y26.0580 F80.00
G01 X46.9448 Y26.1106 F80.00
G01 X46.9638 Y26.1598 F80.00
G01 X46.9812 Y26.2123 F80.00
G01 X46.9966 Y26.2678 F80.00
G01 X47.0084 Y26.3205 F80.00
G01 X47.0176 Y26.3737 F80.00
G01 X47.0247 Y26.4310 F80.00
G01 X47.0286 Y26.4836 F80.00
G01 X47.0300 Y26.5388 F80.00
G01 X47.0287 Y26.5940 F80.00
