(G-CODE GENERATED BY FLATCAM v8.96 - www.flatcam.org - Version Date: 2019/08/23)

(Name: big drills)
(Type: G-code from Excellon)
(Units: MM)

(Created on Sunday, 03 November 2019 at 01:10)

(Feedrate: 80.0 mm/min)
(Feedrate rapids 800.0009 mm/min)

(Z_Cut: -1.8 mm)
(Z_Move: 2.0 mm)
(Z Toolchange: 12.7 mm)
(X,Y Toolchange: 0.0000, 0.0000 mm)
(Z Start: None mm)
(Z End: 12.7 mm)
(Steps per circle: 128)
(Postprocessor Excellon: grbl_11)
(X range:    6.0198 ...   58.7400  mm)
(Y range:    6.0198 ...   49.8602  mm)

(Spindle Speed: 600.0 RPM)


G21
G90
G94
G17

G01 F80.00
G00 Z2.0000

M03 S600.0
G00 X55.8800 Y7.6200
G01 Z-1.8000
G01 Z0
G00 Z2.0000
G00 X7.6200 Y48.2600
G01 Z-1.8000
G01 Z0
G00 Z2.0000
M05
G00 Z12.70
G00 X0.0 Y0.0

M02