(G-CODE GENERATED BY FLATCAM v8.96 - www.flatcam.org - Version Date: 2019/08/23)

(Name: edges)
(Type: G-code from Geometry)
(Units: MM)

(Created on Sunday, 03 November 2019 at 01:11)

(TOOL DIAMETER: 3.17 mm)

(Feedrate: 79.9998 mm/min)
(Feedrate_Z: 79.9998 mm/min)
(Feedrate rapids 79.9998 mm/min)

(Z_Cut: -1.8 mm)
(Z_Move: 1.999 mm)
(Z Toolchange: 12.7 mm)
(X,Y Toolchange: 0.0000, 0.0000 mm)
(Z Start: None mm)
(Z End: 12.7 mm)
(Steps per circle: 128)
(Postprocessor Geometry: grbl_11)

(X range:   -1.7125 ...   65.2125  mm)
(Y range:   -1.7125 ...   57.5925  mm)

(Spindle Speed: 600 RPM)


G21
G90
G94
G17

G01 F80.00
G00 Z1.9990

M03 S600
G00 X5.0800 Y-1.7125
G01 F80.00
G01 Z-1.8000
G01 F80.00
G01 X28.2625 Y-1.7125 F80.00
G00 Z1.9990
G00 X35.4375 Y-1.7125
G01 F80.00
G01 Z-1.8000
G01 F80.00
G01 X58.4407 Y-1.7124 F80.00
G01 X58.5040 Y-1.7104 F80.00
G01 X58.5466 Y-1.7078 F80.00
G01 X58.5879 Y-1.7043 F80.00
G01 X58.6302 Y-1.6996 F80.00
G01 X58.6713 Y-1.6940 F80.00
G01 X58.7134 Y-1.6872 F80.00
G01 X58.7541 Y-1.6796 F80.00
G01 X58.7946 Y-1.6710 F80.00
G01 X58.8361 Y-1.6612 F80.00
G01 X58.8773 Y-1.6503 F80.00
G01 X58.9171 Y-1.6388 F80.00
G01 X58.9578 Y-1.6259 F80.00
G01 X58.9969 Y-1.6124 F80.00
G01 X59.0357 Y-1.5980 F80.00
G01 X59.0753 Y-1.5822 F80.00
G01 X59.1134 Y-1.5658 F80.00
G01 X59.1522 Y-1.5481 F80.00
G01 X59.1894 Y-1.5299 F80.00
G01 X59.2273 Y-1.5103 F80.00
G01 X59.2646 Y-1.4897 F80.00
G01 X59.3004 Y-1.4689 F80.00
G01 X59.3367 Y-1.4465 F80.00
G01 X59.3714 Y-1.4239 F80.00
G01 X59.4056 Y-1.4005 F80.00
G01 X59.4401 Y-1.3755 F80.00
G01 X59.4741 Y-1.3497 F80.00
G01 X59.5064 Y-1.3238 F80.00
G01 X59.5390 Y-1.2963 F80.00
G01 X59.5701 Y-1.2689 F80.00
G01 X59.6004 Y-1.2407 F80.00
G01 X59.6309 Y-1.2109 F80.00
G01 X64.7109 Y3.8691 F80.00
G01 X64.7407 Y3.8996 F80.00
G01 X64.7689 Y3.9299 F80.00
G01 X64.7963 Y3.9610 F80.00
G01 X64.8238 Y3.9936 F80.00
G01 X64.8504 Y4.0269 F80.00
G01 X64.8755 Y4.0599 F80.00
G01 X64.8998 Y4.0934 F80.00
G01 X64.9239 Y4.1286 F80.00
G01 X64.9471 Y4.1643 F80.00
G01 X64.9688 Y4.1996 F80.00
G01 X64.9897 Y4.2354 F80.00
G01 X65.0103 Y4.2728 F80.00
G01 X65.0299 Y4.3106 F80.00
G01 X65.0481 Y4.3478 F80.00
G01 X65.0658 Y4.3866 F80.00
G01 X65.0822 Y4.4247 F80.00
G01 X65.0975 Y4.4631 F80.00
G01 X65.1124 Y4.5031 F80.00
G01 X65.1263 Y4.5434 F80.00
G01 X65.1388 Y4.5829 F80.00
G01 X65.1503 Y4.6227 F80.00
G01 X65.1612 Y4.6639 F80.00
G01 X65.1710 Y4.7054 F80.00
G01 X65.1796 Y4.7459 F80.00
G01 X65.1872 Y4.7866 F80.00
G01 X65.1940 Y4.8287 F80.00
G01 X65.1996 Y4.8698 F80.00
G01 X65.2043 Y4.9121 F80.00
G01 X65.2078 Y4.9534 F80.00
G01 X65.2105 Y4.9960 F80.00
G01 X65.2120 Y5.0386 F80.00
G01 X65.2125 Y5.0800 F80.00
G01 X65.2125 Y24.4525 F80.00
G00 Z1.9990
G00 X65.2125 Y31.6275
G01 F80.00
G01 Z-1.8000
G01 F80.00
G01 X65.2125 Y50.8000 F80.00
G01 X65.2120 Y50.8414 F80.00
G01 X65.2104 Y50.8840 F80.00
G01 X65.2078 Y50.9266 F80.00
G01 X65.2043 Y50.9679 F80.00
G01 X65.1996 Y51.0102 F80.00
G01 X65.1940 Y51.0513 F80.00
G01 X65.1872 Y51.0934 F80.00
G01 X65.1796 Y51.1341 F80.00
G01 X65.1710 Y51.1746 F80.00
G01 X65.1612 Y51.2162 F80.00
G01 X65.1503 Y51.2573 F80.00
G01 X65.1388 Y51.2971 F80.00
G01 X65.1263 Y51.3366 F80.00
G01 X65.1124 Y51.3769 F80.00
G01 X65.0975 Y51.4169 F80.00
G01 X65.0822 Y51.4554 F80.00
G01 X65.0658 Y51.4934 F80.00
G01 X65.0481 Y51.5322 F80.00
G01 X65.0299 Y51.5694 F80.00
G01 X65.0103 Y51.6073 F80.00
G01 X64.9897 Y51.6446 F80.00
G01 X64.9689 Y51.6804 F80.00
G01 X64.9471 Y51.7157 F80.00
G01 X64.9239 Y51.7514 F80.00
G01 X64.8998 Y51.7866 F80.00
G01 X64.8755 Y51.8202 F80.00
G01 X64.8504 Y51.8531 F80.00
G01 X64.8238 Y51.8864 F80.00
G01 X64.7963 Y51.9190 F80.00
G01 X64.7689 Y51.9501 F80.00
G01 X64.7407 Y51.9804 F80.00
G01 X64.7109 Y52.0109 F80.00
G01 X59.6309 Y57.0909 F80.00
G01 X59.6004 Y57.1207 F80.00
G01 X59.5701 Y57.1489 F80.00
G01 X59.5390 Y57.1763 F80.00
G01 X59.5064 Y57.2038 F80.00
G01 X59.4731 Y57.2304 F80.00
G01 X59.4402 Y57.2555 F80.00
G01 X59.4066 Y57.2798 F80.00
G01 X59.3714 Y57.3039 F80.00
G01 X59.3367 Y57.3265 F80.00
G01 X59.3004 Y57.3489 F80.00
G01 X59.2636 Y57.3703 F80.00
G01 X59.2273 Y57.3903 F80.00
G01 X59.1894 Y57.4099 F80.00
G01 X59.1522 Y57.4281 F80.00
G01 X59.1134 Y57.4458 F80.00
G01 X59.0754 Y57.4622 F80.00
G01 X59.0357 Y57.4780 F80.00
G01 X58.9969 Y57.4924 F80.00
G01 X58.9578 Y57.5059 F80.00
G01 X58.9171 Y57.5188 F80.00
G01 X58.8773 Y57.5303 F80.00
G01 X58.8362 Y57.5412 F80.00
G01 X58.7958 Y57.5508 F80.00
G01 X58.7541 Y57.5596 F80.00
G01 X58.7122 Y57.5674 F80.00
G01 X58.6713 Y57.5740 F80.00
G01 X58.6302 Y57.5796 F80.00
G01 X58.5879 Y57.5843 F80.00
G01 X58.5466 Y57.5878 F80.00
G01 X58.5040 Y57.5904 F80.00
G01 X58.4407 Y57.5924 F80.00
G01 X35.4375 Y57.5925 F80.00
G00 Z1.9990
G00 X28.2625 Y57.5925
G01 F80.00
G01 Z-1.8000
G01 F80.00
G01 X5.0593 Y57.5924 F80.00
G01 X4.9960 Y57.5905 F80.00
G01 X4.9534 Y57.5878 F80.00
G01 X4.9121 Y57.5843 F80.00
G01 X4.8698 Y57.5796 F80.00
G01 X4.8287 Y57.5740 F80.00
G01 X4.7878 Y57.5674 F80.00
G01 X4.7459 Y57.5596 F80.00
G01 X4.7054 Y57.5510 F80.00
G01 X4.6639 Y57.5412 F80.00
G01 X4.6227 Y57.5303 F80.00
G01 X4.5829 Y57.5188 F80.00
G01 X4.5434 Y57.5063 F80.00
G01 X4.5031 Y57.4924 F80.00
G01 X4.4643 Y57.4780 F80.00
G01 X4.4247 Y57.4622 F80.00
G01 X4.3866 Y57.4458 F80.00
G01 X4.3478 Y57.4281 F80.00
G01 X4.3106 Y57.4099 F80.00
G01 X4.2728 Y57.3903 F80.00
G01 X4.2354 Y57.3697 F80.00
G01 X4.1996 Y57.3488 F80.00
G01 X4.1633 Y57.3265 F80.00
G01 X4.1286 Y57.3039 F80.00
G01 X4.0934 Y57.2798 F80.00
G01 X4.0599 Y57.2555 F80.00
G01 X4.0259 Y57.2297 F80.00
G01 X3.9936 Y57.2038 F80.00
G01 X3.9610 Y57.1763 F80.00
G01 X3.9299 Y57.1489 F80.00
G01 X3.8996 Y57.1207 F80.00
G01 X3.8691 Y57.0909 F80.00
G01 X-1.2109 Y52.0109 F80.00
G01 X-1.2407 Y51.9804 F80.00
G01 X-1.2689 Y51.9501 F80.00
G01 X-1.2963 Y51.9190 F80.00
G01 X-1.3238 Y51.8864 F80.00
G01 X-1.3504 Y51.8531 F80.00
G01 X-1.3755 Y51.8201 F80.00
G01 X-1.3998 Y51.7866 F80.00
G01 X-1.4239 Y51.7514 F80.00
G01 X-1.4471 Y51.7157 F80.00
G01 X-1.4689 Y51.6804 F80.00
G01 X-1.4897 Y51.6446 F80.00
G01 X-1.5103 Y51.6073 F80.00
G01 X-1.5299 Y51.5694 F80.00
G01 X-1.5481 Y51.5322 F80.00
G01 X-1.5658 Y51.4934 F80.00
G01 X-1.5822 Y51.4553 F80.00
G01 X-1.5975 Y51.4169 F80.00
G01 X-1.6124 Y51.3769 F80.00
G01 X-1.6263 Y51.3366 F80.00
G01 X-1.6388 Y51.2971 F80.00
G01 X-1.6503 Y51.2573 F80.00
G01 X-1.6612 Y51.2161 F80.00
G01 X-1.6710 Y51.1746 F80.00
G01 X-1.6796 Y51.1341 F80.00
G01 X-1.6872 Y51.0934 F80.00
G01 X-1.6940 Y51.0513 F80.00
G01 X-1.6996 Y51.0102 F80.00
G01 X-1.7043 Y50.9679 F80.00
G01 X-1.7078 Y50.9266 F80.00
G01 X-1.7104 Y50.8840 F80.00
G01 X-1.7120 Y50.8414 F80.00
G01 X-1.7125 Y50.8000 F80.00
G01 X-1.7125 Y31.6275 F80.00
G00 Z1.9990
G00 X-1.7125 Y24.4525
G01 F80.00
G01 Z-1.8000
G01 F80.00
G01 X-1.7125 Y5.0800 F80.00
G01 X-1.7120 Y5.0374 F80.00
G01 X-1.7104 Y4.9960 F80.00
G01 X-1.7079 Y4.9546 F80.00
G01 X-1.7043 Y4.9121 F80.00
G01 X-1.6996 Y4.8698 F80.00
G01 X-1.6940 Y4.8287 F80.00
G01 X-1.6874 Y4.7878 F80.00
G01 X-1.6796 Y4.7459 F80.00
G01 X-1.6708 Y4.7042 F80.00
G01 X-1.6612 Y4.6639 F80.00
G01 X-1.6503 Y4.6227 F80.00
G01 X-1.6388 Y4.5829 F80.00
G01 X-1.6263 Y4.5434 F80.00
G01 X-1.6124 Y4.5031 F80.00
G01 X-1.5975 Y4.4631 F80.00
G01 X-1.5822 Y4.4247 F80.00
G01 X-1.5658 Y4.3866 F80.00
G01 X-1.5481 Y4.3478 F80.00
G01 X-1.5294 Y4.3095 F80.00
G01 X-1.5103 Y4.2727 F80.00
G01 X-1.4897 Y4.2354 F80.00
G01 X-1.4689 Y4.1996 F80.00
G01 X-1.4471 Y4.1643 F80.00
G01 X-1.4239 Y4.1286 F80.00
G01 X-1.3998 Y4.0934 F80.00
G01 X-1.3755 Y4.0599 F80.00
G01 X-1.3504 Y4.0269 F80.00
G01 X-1.3238 Y3.9936 F80.00
G01 X-1.2963 Y3.9610 F80.00
G01 X-1.2689 Y3.9299 F80.00
G01 X-1.2407 Y3.8996 F80.00
G01 X-1.2109 Y3.8691 F80.00
G01 X3.8691 Y-1.2109 F80.00
G01 X3.8996 Y-1.2407 F80.00
G01 X3.9299 Y-1.2689 F80.00
G01 X3.9610 Y-1.2963 F80.00
G01 X3.9936 Y-1.3238 F80.00
G01 X4.0259 Y-1.3497 F80.00
G01 X4.0599 Y-1.3755 F80.00
G01 X4.0934 Y-1.3998 F80.00
G01 X4.1286 Y-1.4239 F80.00
G01 X4.1633 Y-1.4465 F80.00
G01 X4.1996 Y-1.4689 F80.00
G01 X4.2354 Y-1.4897 F80.00
G01 X4.2727 Y-1.5103 F80.00
G01 X4.3095 Y-1.5294 F80.00
G01 X4.3478 Y-1.5481 F80.00
G01 X4.3855 Y-1.5653 F80.00
G01 X4.4247 Y-1.5822 F80.00
G01 X4.4631 Y-1.5975 F80.00
G01 X4.5031 Y-1.6124 F80.00
G01 X4.5434 Y-1.6263 F80.00
G01 X4.5829 Y-1.6388 F80.00
G01 X4.6227 Y-1.6503 F80.00
G01 X4.6639 Y-1.6612 F80.00
G01 X4.7042 Y-1.6708 F80.00
G01 X4.7459 Y-1.6796 F80.00
G01 X4.7878 Y-1.6874 F80.00
G01 X4.8287 Y-1.6940 F80.00
G01 X4.8710 Y-1.6997 F80.00
G01 X4.9121 Y-1.7043 F80.00
G01 X4.9546 Y-1.7079 F80.00
G01 X4.9960 Y-1.7104 F80.00
G01 X5.0374 Y-1.7120 F80.00
G01 X5.0800 Y-1.7125 F80.00
G00 Z1.9990
M05
G00 Z1.9990
G00 Z12.70
G00 X0.0 Y0.0

M02