(G-CODE GENERATED BY FLATCAM v8.96 - www.flatcam.org - Version Date: 2019/08/23)

(Name: small drills)
(Type: G-code from Excellon)
(Units: MM)

(Created on Sunday, 03 November 2019 at 01:11)

(Feedrate: 80.0 mm/min)
(Feedrate rapids 800.0009 mm/min)

(Z_Cut: -1.8 mm)
(Z_Move: 2.0 mm)
(Z Toolchange: 12.7 mm)
(X,Y Toolchange: 0.0000, 0.0000 mm)
(Z Start: None mm)
(Z End: 12.7 mm)
(Steps per circle: 128)
(Postprocessor Excellon: grbl_11)
(X range:    6.0198 ...   58.7400  mm)
(Y range:    6.0198 ...   49.8602  mm)

(Spindle Speed: 600.0 RPM)


G21
G90
G94
G17

G01 F80.00
G00 Z2.0000

M03 S600.0
G00 X19.5809 Y46.8605
G01 Z-1.8000
G01 Z0
G00 Z2.0000
G00 X19.5809 Y44.3205
G01 Z-1.8000
G01 Z0
G00 Z2.0000
G00 X19.5809 Y41.7805
G01 Z-1.8000
G01 Z0
G00 Z2.0000
G00 X19.5809 Y39.2405
G01 Z-1.8000
G01 Z0
G00 Z2.0000
G00 X19.5809 Y36.7005
G01 Z-1.8000
G01 Z0
G00 Z2.0000
G00 X19.5809 Y34.1605
G01 Z-1.8000
G01 Z0
G00 Z2.0000
G00 X19.5809 Y31.6205
G01 Z-1.8000
G01 Z0
G00 Z2.0000
G00 X19.5809 Y29.0805
G01 Z-1.8000
G01 Z0
G00 Z2.0000
G00 X19.5809 Y26.5405
G01 Z-1.8000
G01 Z0
G00 Z2.0000
G00 X19.5809 Y24.0005
G01 Z-1.8000
G01 Z0
G00 Z2.0000
G00 X19.5809 Y21.4605
G01 Z-1.8000
G01 Z0
G00 Z2.0000
G00 X19.5809 Y18.9205
G01 Z-1.8000
G01 Z0
G00 Z2.0000
G00 X19.5809 Y16.3805
G01 Z-1.8000
G01 Z0
G00 Z2.0000
G00 X9.2405 Y13.9192
G01 Z-1.8000
G01 Z0
G00 Z2.0000
G00 X9.2405 Y11.3792
G01 Z-1.8000
G01 Z0
G00 Z2.0000
G00 X9.2405 Y8.8392
G01 Z-1.8000
G01 Z0
G00 Z2.0000
G00 X19.5809 Y11.3005
G01 Z-1.8000
G01 Z0
G00 Z2.0000
G00 X19.5809 Y13.8405
G01 Z-1.8000
G01 Z0
G00 Z2.0000
G00 X44.9809 Y11.3005
G01 Z-1.8000
G01 Z0
G00 Z2.0000
G00 X44.9809 Y13.8405
G01 Z-1.8000
G01 Z0
G00 Z2.0000
G00 X44.9809 Y16.3805
G01 Z-1.8000
G01 Z0
G00 Z2.0000
G00 X44.9809 Y18.9205
G01 Z-1.8000
G01 Z0
G00 Z2.0000
G00 X58.2397 Y18.4150
G01 Z-1.8000
G01 Z0
G00 Z2.0000
G00 X58.2397 Y20.9550
G01 Z-1.8000
G01 Z0
G00 Z2.0000
G00 X44.9809 Y21.4605
G01 Z-1.8000
G01 Z0
G00 Z2.0000
G00 X44.9809 Y24.0005
G01 Z-1.8000
G01 Z0
G00 Z2.0000
G00 X44.9809 Y26.5405
G01 Z-1.8000
G01 Z0
G00 Z2.0000
G00 X44.9809 Y29.0805
G01 Z-1.8000
G01 Z0
G00 Z2.0000
G00 X44.9809 Y31.6205
G01 Z-1.8000
G01 Z0
G00 Z2.0000
G00 X44.9809 Y34.1605
G01 Z-1.8000
G01 Z0
G00 Z2.0000
G00 X44.9809 Y36.7005
G01 Z-1.8000
G01 Z0
G00 Z2.0000
G00 X44.9809 Y39.2405
G01 Z-1.8000
G01 Z0
G00 Z2.0000
G00 X44.9809 Y41.7805
G01 Z-1.8000
G01 Z0
G00 Z2.0000
G00 X44.9809 Y44.3205
G01 Z-1.8000
G01 Z0
G00 Z2.0000
G00 X44.9809 Y46.8605
G01 Z-1.8000
G01 Z0
G00 Z2.0000
M05
G00 Z12.70
G00 X0.0 Y0.0

M02